X:1
T:Piano Concerto No. 4
T:Piano Concerto No. 4
T:3rd Movement
T:Ludwig van Beethoven
T:Arr. for 2 Pianos by Franz Kullak 
C:Ludwig van Beethoven
Z:Arr. for 2 pianos by Franz Kullak
%%score { ( 1 3 ) | ( 2 4 ) } { ( 5 7 9 ) | ( 6 8 10 11 ) }
L:1/8
Q:1/4=144
M:2/4
K:G
V:1 treble nm="Piano I" snm="Pno. I"
V:3 treble 
V:2 bass 
V:4 bass 
V:5 treble nm="Piano II" snm="Pno. II"
V:7 treble 
V:9 treble 
V:6 bass 
V:8 bass 
V:10 bass 
V:11 bass 
V:1
"^Vivace""^Rondo" z4 | z4 | z4 | z4 | z4 | z4 | z4 | z4 | z4 | z4 |!mp! e2 z/ e/g/=f/ | %11
 e2 z/ e/g/=f/ | e/e/g/=f/ e/e/g/c'/ | e' z z2 |"^♮" Te'/4=f'/4e'/4f'/4d'/e'/ Tc'b/c'/ | a z z2 | %16
 Tag/a/ Td'c'/d'/ | Tba/b/ g z |!mf! .a z .d z | !>!.B4 | z4 | z4 | z4 | z4 |!mp! gf/g/ ag/f/ | %25
 gd' c'2 | ba/g/ ag/f/ | ged z | z4 |!mf! !>![Bg]/[^ce]/.d z2 | z4 | z4 | z4 | z4 | z4 | z4 | z4 | %37
 z4 | z4 | z4 | z4 | z4 | z4 | z4 | z d'2!f! .d | .c'.c .b.B | aA gG | aA fF | z4 | z4 | z4 | z4 | %52
 z b2!f! B | aA gG | fF eE | ^d^D =d=D | z4 |!mp! [^ca][Ac][db][Bd] | z4 |!mp! [^ca][Ac][db][Bd] | %60
 [^ca] =f/d/ e/c/f/d/ | e/^c/=f/d/ e/c/=g/!mp!e/ | ^f/^d/g/e/ f/d/=a/!mp!f/ | %63
 ^g/^e/_b/!mp!=g/ a/f/=c'/!mp!a/ | =b/^g/=d'/!mp!b/ ^c'/^a/_e'/!mp!=c'/ | %65
 d'/b/=f'/d'/ =e'/^c'/f'/d'/ |[Q:1/4=128]"_dim." e'/^c'/=f'/d'/ e'/c'/f'/d'/ | %67
!p![Q:1/4=144] (3[^c'e']d'c' (3bc'a | (3^gab (3^c'd'b | (3e'd'^c' (3bc'a | (3^gab (3^c'd'b | %71
"_cresc." (3^c'd'b (3d'e'c' | (3d'e'^c' (3e'f'd' | (3e'f'd' (3f'g'e' | (3f'g'e' (3f'g'e' | %75
 (3f'g'e' (3f'^g'^e' | (3f'^g'^e' (3f'g'!mf!e' |"_dim." (3f'^g'^e' (3f'g'e' | %78
[Q:1/4=130] (3f'^g'^e' (3f'g'e' |!p![Q:1/4=134] !>!a'4- | a'2 =g'f' | %81
{!fermata!e'!fermata!f'!fermata!g'} !fermata!f'2 e'2- | e'ab^c' | d'4 | %84
{!fermata!e'!fermata!d'!fermata!^c'} !fermata!d'e'f'g' | f'2 e'2- |[Q:1/4=120] e'2 f'g' | %87
[Q:1/4=200] a2[Q:1/4=134] a'4- | a'b'/a'/ g'f' | %89
{!fermata!e'!fermata!f'!fermata!g'} !fermata!f'2 e'2 | e'ab^c' |!f! .[dd']2[Q:1/4=138] [ee'] z | %92
 z4 | z4 | z4 | z4 | z4 | z4 | z4 | z4 | z4 | z4 | z4 | z4 | z4 | z4[Q:1/4=138] | z4 | %107
 z4[Q:1/4=141] | z4 |!f![Q:1/4=144]"^\n\n" z A,/F/ D/A/F/d/ | A/f/d/a/ f/d'/a/f'/ | %111
 z/ e'/!>!g'/^c'/ e'/g/c'/e/ | g/^c/e/G/ c/E/G/^C/ | z A,/F/ D/A/F/d/ | A/f/d/a/ f/d'/a/f'/ | %115
 z/ e'/!>!g'/^c'/ e'/g/c'/e/ | g/^c/e/G/ c/E/G/^C/ | z/ d'/!>!f'/a/ d'/f/a/d/ | %118
 z/ ^c'/!>!e'/^a/ c'/e/a/^c/ |!mf! z/ b/d'/f/ z/ =a/=c'/f/ |!>(! z/ g/b/d/ z/ f/a/^d/ | %121
 z/ e/g/B/ z/ B/e/G/ | z/ ^c/e/=d/ c/B/A/G/!>)! |!pp! F A,/F/ D/A/F/d/ | A/f/d/a/ f/d'/a/f'/ | %125
 z/ e'/g'/^c'/ e'/g/c'/e/ | g/^c/e/G/ c/E/G/^C/ | z A,/F/ D/A/F/d/ | A/f/d/a/ f/d'/a/f'/ | %129
 z A,/=F/ D/A/F/d/ | A/=f/d/a/ f/d'/a/=f'/ | z"_cresc." B,/=F/ D/B/F/d/ | %132
 B/=f/d/b/ (3!>!f!>!d'!>!b |!ff! (3!>!=f'bd' (3=fbd | (3=fBd (3=FBD | %135
 (3=FB,D[I:staff +1] (3=F,B,D, |[I:staff -1] z2 (3z bd' |!ff! (3=f'bd' (3=fbd | (3=fBd (3=FBD | %139
!>(! (3=FB,D[I:staff +1] (3=F,B,D, |[I:staff -1] z2 (3z bd'!>)! |!mf! (3=f'!>(!bd' =f2- | %142
 (3fBd =F2- | (3FBd =f2-!>)! |!p! (3fbd' =f'2- | (3f'bd' =f'2- |"_cresc." (3f'bd' =f'2- | %147
 (3f'b=f' a'2- | (3a'd'=f' a'2- | (3a'd'=f' !>!a'2 | (3a'g'=f' (3e'f'd' | (3a'd'=f' a'2- | %152
 (3a'"_dim."g'=f' (3e'f'd' | (3a'g'=f' (3e'f'd' | (3a'g'=f' (3e'f'd' |!pp![Q:1/4=130] a'2 ^g'2 | %156
 =g'2 ^f'2 |[Q:1/4=120] =f'2 e'2 | !breath!!fermata!d'2 !fermata!g'2 | %159
[Q:1/4=184]!pp! g'/!<(!=f'/e'/d'/c'/b/a/g/ |f/e/d/c/B/A/G/=F/ |E/D/C/[I:staff +1]B,/A,/G,/=F,/E,/ | %162
D,/C,/B,,/A,,/!<)!!p!G,,/_A,,/=A,,/_B,,/ | =B,,/C,/^C,/D,/_E,/=E,/=F,/^F,/ | %164
G,/^G,/A,/_B,/=B,/[I:staff -1]=C/^C/D/ |^D/E/=F/^F/=G/^G/A/_B/ |=B/=c/^c/=d/^d/e/=f/^f/ | %167
(9:8:9=g/^g/a/_b/=b/=c'/^c'/=d'/^d'/ |[Q:1/4=144] e'2 z2 | z4 | z4 | z4 | z4 | z4 | z4 | z4 | z4 | %177
 z4 |!mp! e2 z/ e/g/=f/ | e2 z/ e/g/=f/ | e/e/g/=f/ e/e/g/c'/ | e' z z2 | %182
"^♮" Te'/4=f'/4e'/4f'/4d'/e'/ Tc'b/c'/ | a z z2 | Tag/a/ Td'c'/d'/ | Tba/b/ g z | a z d z | B4 | %188
 z4 | z4 | z4 | z4 |!mp! gf/g/ ag/f/ | gd' c'2 | ba/g/ ag/f/ | ged z | z4 | [Bg]/[^ce]/.d z2 | z4 | %199
 z4 | z4 | z4 | z4 | z4 | z4 | z4 | z4 | z4 | z4 | z4 | z4 | z4 | z d'2!f! .d | .c'.c ._b._B | %214
 aA gG | aA fF | z4 | z4 | z4 | z4 | z ._b'2!f! ._b | ._a'._a .g'.g | =f'=f _e'_e | =f'=f d'd | %224
!ff! _e'/_e/g/_b/ e'/b/g/e/ | g'/!ff!_e'/_b/g/ e'/b/g/_e/ | g'/!ff!_e'/_b/g/ e'/b/g/_e/ | %227
 g'/!ff!_e'/_b/g/ e'/b/g/_e/ | z/ =f/_b/d'/ =f'/b/d'/f'/ | _a'/!ff!=f'/d'/_b/ f'/d'/b/_a/ | %230
 _a'/!ff!=f'/d'/_b/ f'/d'/b/_a/ | _a'/!ff!=f'/d'/_b/ f'/d'/b/_a/ | [_bg'] z z2 | z4 | z4 | z4 | %236
 z/!mp! _B/_d/=f/ _b/d/f/b/ | _d'/_b/=f/_d/ b/f/d/_B/ | _d'/_b/=f/_d/ b/f/d/_B/ | %239
 _d'/_b/=f/_d/ b/f/d/_B/ | z/ c/=f/=a/ c'/f/a/c'/ | _e'/c'/a/=f/ c'/a/f/_e/ | %242
 _e'/c'/a/=f/ c'/a/f/_e/ | _e'/c'/a/=f/ c'/a/f/_e/ | [=f_d'] z z2 | z4 | z4 | z4 | %248
 z/ =f/_a/c'/ =f'/a/c'/f'/ | _a'/=f'/c'/_a/ f'/c'/a/=f/ | _a'/=f'/c'/_a/ f'/c'/a/=f/ | %251
 _a'/=f'/c'/_a/ f'/c'/a/=f/ | z/ g/c'/e'/ g'/c'/e'/g'/ | _b'/g'/e'/c'/ g'/e'/c'/_b/ | %254
 _b'/g'/e'/c'/ _b/g/e/c/ | _B/G/E/C/ B/G/E/C/ |!f! [=A,C] z .[C^F].[F=A] | [Ac] z z2 | %258
 [Ac] z .[c^f].[fa] | [ac'] z z2 |!p! (3_e'd'e' (3c'=bc' | !>!a2 !>!^f2 | !>!_e2 !>!c2 | %263
 !>!A2 !>!^F2 | (3d'^c'd' (3_bab | !>!g2 !>!d2 | (3_BAB !>!G2 | !>!D2 x2 | (3_a'g'a' (3=f'e'f' | %269
 !>!d'2 !>!=b2 | !>!_a2 !>!=f2 | !>!d2 !>!=B2 | (3g'^f'g' (3_e'd'e' | !>!c'2 !>!g2 | (3_ede !>!c2 | %275
 !>!G2 (3[C_E][B,D][CE] | (3g'^f'g' (3=e'^d'e' | !>!^c'2 !>!g2 | (3=e^de !>!^c2 | %279
 !>!G2 (3[^C=E][^B,^D][CE] |!f! z/ [=D^F=d]/z/[DG^c]/z/[DFd]/z/[DGc]/ | %281
 z/ [=D^F=d]/z/[DG^c]/z/[DFd]/z/[DGc]/ | z/ [DFd]/z/[Fd]/z/[G^cd]/z/[G=cd]/ | %283
 z/ [Acd]/z/[Acd]/z/[G_Bd]/z/[GBe]/ | z/ [=D^F=d]/z/[DG^c]/z/[DFd]/z/[DGc]/ | %285
 z/ [=D^F=d]/z/[DG^c]/z/[DFd]/z/[DGc]/ | z/ [DFd]/z/[Fd]/z/[G^cd]/z/[G=cd]/ | %287
 z/ [Acd]/z/[Acd]/z/[G_Bd]/z/[GBe]/ |!f! [Fd] B/G/ A/F/B/G/ | A/F/B/G/ A/F/=c/!f!A/ | %290
 =B/^G/c/A/ B/G/=d/!f!B/ | ^c/^A/_e/!f!=c/ d/=B/=f/!f!d/ | =e/^c/!f!=g/e/ ^f/^d/_a/!f!=f/ | %293
 g/e/_b/g/ =a/^f/b/g/ |[Q:1/4=120]"_dim." a/f/g'/_b/ f'/a/g'/b/ |!p![Q:1/4=144] (3[af']gf (3efd | %296
 (3^cde (3fge | (3agf (3efd | (3^cde (3fgf |"_cresc." (3fge (3gaf | (3gaf (3a=bg | (3abg (3bc'a | %302
 (3bc'a (3bc'a | (3bc'a (3^b^c'^a |!mf! (3^b^c'^a (3bc'a |"_dim." (3^b^c'^a (3bc'a | %306
[Q:1/4=120] (3^b^c'^a (3bc'!fermata!a |[Q:1/4=134]!p! !>!d'4- | d'2 =c'b | %309
{!fermata!a!fermata!b!fermata!c'} !fermata!b2 a2- | adef | g4 | %312
{!fermata!a!fermata!g!fermata!f} !fermata!gabc' | b2 a2- |[Q:1/4=120] a2 bc' | %315
[Q:1/4=200] d2[Q:1/4=134] d'4 | d'e'/d'/ c'b |{!fermata!a!fermata!b!fermata!c'} !fermata!b2 a2- | %318
!<(! adef!<)! |!f! .[Gg]2 [Aa] z | z4 | z4 | z4 | z4 | z4 | z4 | z4 | z4 | z4 | z4 | z4 | z4 | z4 | %333
[Q:1/4=137] z4 | z4 | z4[Q:1/4=141] | z4 |[Q:1/4=144]!f! z B,/G/ D/B/G/d/ | B/g/d/b/ g/d'/b/g'/ | %339
 z/ f'/!>!a'/c'/ f'/a/c'/f/ | a/c/f/A/ c/F/A/C/ | z B,/G/ D/B/G/d/ | B/g/d/b/ g/d'/b/g'/ | %343
 z/ f'/!>!a'/c'/ f'/a/c'/f/ | a/c/f/A/ c/F/A/C/ | z/ g'/!>!b'/d'/ g'/b/d'/g/ | %346
 z/ f'/!>!a'/^d'/ f'/a/d'/f/ |!mf! z/ e'/g'/b/ z/ =d'/=f'/b/ |!>(! z/ c'/e'/g/ z/ b/d'/^g/ | %349
 z/ a/c'/e/ z/ a/e'/e/ | z/ f/a/=g/ f/e/d/c/!>)! |!pp! B B,/G/ D/B/G/d/ | B/g/d/b/ g/d'/b/g'/ | %353
 z/ f'/!>!a'/c'/ f'/a/c'/f/ | a/c/f/A/ c/F/A/C/ | z B,/G/ D/B/G/d/ |!>(! B/g/d/b/ g/d'/b/g'/!>)! | %357
!pp! z _B,/G/ D/_B/G/d/ | _B/g/d/_b/ g/d'/b/g'/ | z _B,/"_cresc."G/ _E/_B/G/_e/ | %360
 _B/g/_e/_b/ (3!>!g!>!_e'!>!b |!ff! (3!>!g'_b_e' (3gb_e | (3g_B_e (3GB_E | %363
 (3G_B,_E[I:staff +1] (3G,_B,_E, |[I:staff -1] x2 (3z _b_e' |!ff! (3!>!g'_b_e' (3gb_e | %366
!>(! (3g_B_e (3GB_E | (3G_B,_E[I:staff +1] (3G,_B,_E, |[I:staff -1] x2 (3z _b_e'!>)! | %369
!p! (3g'_b_e' g2- | (3g_B_e G2- | (3G_B_e g2- | (3g_b_e' g'2- |"_dim." (3g'_b_e' g'2- | %374
 (3g'_b_e' g'2- | (3g'_b_e' g'2- | (3g'_b_e' g'2- |!pp! (3g'_b_e' g'2- | (3g'_b_e' g'2- | %379
 (3g'c'_e' g'2- | (3g'c'_e' a2- | (3aac' =f'2- | (3f'_bd' =f'2- | (3f'ac' =f'2- | (3f'_bd' =f'2- | %385
 (3f'ac' =f'2 | (3=f'_bd' f'2- |!<(! (3f'=bd' g'2- | (3g'c'_e' g'2- | (3g'bd' g'2- | %390
 (3g'c'_e' g'2!<)! |!p!!8va(! a'/=f'/c'/f'/ a'/f'/c'/f'/ | _b/=f'/d'/f'/ _b'/f'/d'/f'/ | %393
 a/=f'/c'/f'/ a'/f'/c'/f'/ | _b/=f'/d'/f'/ _b'/f'/d'/f'/ | =b/g'/d'/g'/ =b'/g'/d'/g'/ | %396
 c'/g'/_e'/g'/ c''/g'/e'/g'/ | b/g'/d'/g'/ b'/g'/d'/g'/ |"_cresc." c'/g'/_e'/g'/ !^!c''!^!c'' | %399
!ff! !^!c''!8va)! z z2 | z4 | z4 | z4 | z4 | z4 | z4 | z4 | z4 | z4 | z4 |!ff! z =fbd' | %411
 !>!=f'2!ff! d'b | !>!=f2!ff! dB | !>!=F2!ff! DB, | !>!=F,2!ff! B,D |"_dim." =F2 Bd | =f2 bd' | %417
 =f'2 bd' | =f'2 bd' |!p! =f'2 bd' | =f'2 bd' |[Q:1/4=130]"_dim." =f'2 bd' | %422
[Q:1/4=120]"^ritard." =f'2 bd' |!pp![Q:1/4=100] g'2 !fermata!=f'!fermata!d' | %424
 (3g'/=f'/d'/ (3g'/f'/d'/ (3g'/f'/d'/ (3g'/f'/d'/ | %425
 (3g'/=f'/d'/ (3g'/f'/d'/[Q:1/4=90] (3g'/f'/d'/ (3g'/f'/d'/ | %426
[Q:1/4=100]!<(! (18:8:18g'/=f'/e'/d'/c'/b/a/g/=f/ e/d/c/B/A/!<)!!p! G/!>(!_A/=A/_B/ | %427
(17:8:17=B/c/^c/d/_e/=e/=f/^f/g/^g/=a/_b/=b/=c'/^c'/d'/!>)!^d'/ |[Q:1/4=144]!p! e' z z e'/e/ | %429
 e'2 z e'/e/ |!<(! e' e'/e/ e' e'/e/!<)! |!p! e' z z e'/e/ | e' c'/c/ c' a/A/ | a z z a/A/ | %434
 ad'/d/ d'b/B/ | bg/G/ ga/A/ | ad/D/ dB/B,/ | B2 z2 | z4 | z4 | z4 | z4 | z4 | z4 | z4 | z4 | z4 | %447
 z4 | z4 | z4 | z4 | z !>!d'2!ff! .d | .c'.c.b.B | .a.A .g.G | .a.A .f.F |!ff! g/G/B/d/ g/b/d'/b/ | %456
 !>!c'/!ff!e'/a/c'/ f/a/d/f/ | g/b/d/g/ B/d/G/B/ |!p! c/e/A/c/ F/A/D/F/ |!ff! G/G,/B,/D/ G/B/d/B/ | %460
 !>!c/!ff!e/A/c/ F/A/C/F/ | A,/C/F/C/ A/F/c/A/ |!f! (3fca (3fc'a |"_dim." (3fc'a (3fc'a | %464
 (3fc'a (3f^c'a | (3f^c'a (3fc'^a | (3f^c'^a (3fc'a |!p! (3f^c'^a (3fc'a | %468
!>(! (3f^c'^a (3fc'a!>)! |!pp![Q:1/4=130] (3f^c'^a (3fc'a |[Q:1/4=120] (3f^c'^a (3fc'a | %471
!p![Q:1/4=130] ^c'4- | c'2 b^a |{!fermata!^g!fermata!^a!fermata!b} !fermata!^a2 g2 | ^g^c^d^e | %475
 f z z2 | z4 | z4 | z/ =g/=a/b/ =c'/=d'/e'/=f'/ | =g'4 | g'a'/g'/ =f'e' | e'2 d'2 | d'gab | %483
 c' z z2 | z4 | z4 | z/!p! d/!>(!e/^f/ g/a/b/c'/!>)! |!pp! d'2 z2 | z/!pp! D/E/F/ G/A/B/c/ | %489
 d z z2 | z/ d/e/^f/ g/a/b/c'/ | d'2 z2 | z/ D/E/F/ G/A/B/c/ | d2 z2 | z/ d/e/f/ g/a/b/c'/ | %495
"_cresc." d'/d/e/f/ g/a/b/c'/ |[Q:1/4=132] d'/d/e/f/ g/a/b/c'/ |[Q:1/4=136] d'/d/e/f/ g/a/b/c'/ | %498
[Q:1/4=140] d'/d/e/f/ g/a/b/c'/ |!f![Q:1/4=144] d' z z2 | z4 | z4 | z4 | z4 | z4 | z4 | z4 | z4 | %508
 z4 | z4 | z4 | z4 ||[M:4/4] z8 |!f! [dd'] z [ee'] z [=f=f'] z [^G^g] z | [Aa] z z2 z4 | %515
!mf! [ee']!>(! z [ff'] z [gg'] z [^A^a] z!>)! |!mp! B/d/b/d/ B/d/b/d/ B/d/b/d/ B/d/b/d/ | %517
 B/=c/b/c/ B/c/b/c/ A/c/a/c/ A/c/a/c/ | A/B/a/B/ A/B/a/B/ G/B/g/B/ G/B/g/B/ | %519
 G/B/g/B/ G/B/g/B/ G/B/g/B/ G/B/g/B/ | G/B/g/B/ G/B/g/B/ G/B/g/B/ G/B/g/B/ | %521
[Q:1/4=134]!>(! G/[Bd]/g/[Bd]/ G/[Bd]/g/[Bd]/ G/[Bd]/g/[Bd]/ G/[Bd]/g/[Bd]/!>)! ||[M:2/4]!p! g4- | %523
 g2 =fe | e2 d2- | dGAB ||[M:4/4]!p! c/d/e/=f/ g/a/b/c'/ d/e/f/g/ a/b/c'/d'/ | %527
!<(! e/=f/g/a/ b/c'/d'/e'/ [^fa]2 d'2!<)! ||[M:2/4]!mp! [dd']4- | [dd']2 [cc'][Bb] | [Bb]2 [Aa]2- | %531
 [Aa]d ef |!mp! g!<(! z z B/g/ | d/b/g/d'/!8va(! b/g'/d'/b'/!<)! | %534
!f![Q:1/4=144] !>!c'' z z/ a'/c''/f'/ | a'/c'/f'/a/!8va)! c'/f/a/c/ | !>!B z z B,/G/ | %537
 D/B/G/d/ B/g/d/b/ | !>!c' z z/ a/c'/f/ | a/c/f/A/ c/F/A/C/ || %540
[M:4/4] !>!B, z z/ g/b/d/ !>!a z z/ f/a/^d/ | g z z/ e/g/B/ =f z z/ =d/f/B/ | %542
"_cresc." z/ c/e/G/ z/ B/d/^G/ z/ A/^c/E/ z/ A/=c/F/ | %543
 z/ G/B/D/ z/ G/^c/^C/ z/ c/g/G/!ff! z [gg'] | z8 | %545
 z/ G/^c/^C/ z/ c/g/G/ z/ g/^c'/c/ z [g^c'=e'g'] | z8 ||[M:2/4]!f! TA,2 TA2 | Ta4 | TC2 Tc2 | %550
 Tc'4 | TF2 Tf2 | Tf'4- | f'4- | f'4 | (3=f'!>(!e'=g' (3f'e'd' | (3c'ba (3^g=fe!>)! | %557
!p!"^dolce" (3dcB (3A^G=f | (3=fed (3cBA | (3edc (3BA=G | (3dcB (3AG^F | z4 | %562
[I:staff +1] (3^G,B,[I:staff -1]D (3=F^GB |!p! (3d=f^g (3bd'=f'- | (3f'e'd' (3c'ba | %565
 (3e'd'c' (3bag | (3d'c'b (3ag^f |!p! z/ d/b/g/ d'2 | z/ d/b/g/ d'2 | z/ e/c'/g/ e'2 | %570
 z/ e/c'/g/ e'2 | z/ e/c'/a/ e'2 | z/ d/c'/a/ d'2 | z/ d/c'/a/ d'2 | z/ d/b/g/ d'2 | %575
 z/ d/a/f/ d'2 | z/ d/g/b/ ^c/d/e/d/ | ^c/d/e/d/ f/g/a/g/ | ^a/b/c'/b/ ^c'/d'/e'/d'/ | %579
 ^d/e/=f/e/ ^f/g/a/g/ | b/c'/d'/c'/ ^d'/e'/=f'/e'/ | ^d'/e'/=f'/e'/ b/c'/=d'/c'/ | %582
 ^g/a/b/a/ g/a/b/a/ | ^g/a/b/a/ ^c'/d'/e'/d'/ | ^a/b/=c'/b/ f/=g/=a/g/ | ^g/a/b/a/ ^c/d/e/d/ | %586
 ^A/B/=c/B/ f/=g/a/g/ | ^g/a/b/a/ ^c/d/e/d/ | ^A/B/=c/B/ f/=g/a/!p!g/ | %589
"_dim." ^g/a/b/a/ ^c/d/e/d/ | ^g/a/b/a/ ^c/d/e/d/ |[Q:1/4=130] ^g/a/b/a/ ^c/d/e/d/ | %592
[Q:1/4=120] ^g/a/b/a/ ^c/d/e/!pp!d/ |!p![Q:1/4=144] .[gb]2 .[ac']2 | .[bd']2 .[bd'g']2 | %595
 .[ac'f']2 .[gbe']2 | .[fad']2 .[dfc']2 |"_dim." gb ac' | bd' [bd']g' |[Q:1/4=130] [ac']f' [gb]e' | %600
[Q:1/4=120] [fa]d'!pp![Q:1/4=144] !fermata!Td'2 |[Q:1/4=184]"^Presto"!8va(! Td'4- | d'4 | %603
!p! Tf'4- | f'4 |!p! Ta'4- | a'4 |"_cresc." (3b'c''b' (3c''b'c'' | (3b'c''b' (3c''b'c'' | %609
 (3b'c''b' (3c''b'c'' | (3b'c''b' (3c''b'c'' |!f! b'g'b'g' | b'g'b'g' | b'g'b'g' | b'g'b'g' | %615
!ff! [c'e'g'c'']2!8va)! z2 | z4 | z4 | z4 | z4 | z4 | z4 | z4 | z4 | z4 | z4 | z2!p! [gbg']2 | %627
 z2 [ac'e'a']2 | z2 [dfad']2 |!pp!!8va(! (3gd'b (3g'd'b | (3af'd' (3a'f'd' | (3bg'd' (3b'g'd' | %632
 (3af'd' (3a'f'd' | (3gd'b (3g'd'b | (3af'd' (3a'f'd' | (3bg'd' (3b'g'd' | (3af'd' (3a'f'd' | %637
"_cresc." (3gd'b (3g'd'b | (3af'd' (3a'f'd' | (3bg'd' (3b'g'd' | (3c'a'f' (3c''a'f' | %641
!ff! (3g'd'b!8va)! (3gdB | (3gdB (3GDB, | (3G,B,D (3GBd | (3gbd'!8va(! (3g'd'b' | g'2 z2 | %646
!ff! [ad'f'a']2 z2 | [bd'g'b']2!8va)! z2 |] %648
V:2
 z4 | z4 | z4 | z4 | z4 | z4 | z4 | z4 | z4 | z4 |!p! C, !>![G,CE]3 | C, !>![G,CE]3 | %12
 C,[G,CE]C,[G,CE] | C, !>![G,CE]3 | A,,[A,CE]C,[A,CE] | D, !>![A,D^F]3 | D, [A,DF]3 | G, [B,DG]3 | %18
 C,[A,CE]D,[A,CF] | G,, [D,G,B,]3 | z4 | z4 | z4 | z4 |[K:treble] B,/G/D/G/ A,/A/D/A/ | %25
 B,/G/D/G/ A,/F/D/F/ |[K:bass] G,/G/D/G/ F,/F/D/F/ | E,/E/A,/G/ [DF] z | z4 |[K:treble] E/G/F z2 | %30
 z4 | z4 | z4 | z4 | z4 | z4 | z4 | z4 | z4 | z4 | z4 | z4 | z4 | z4 |!f! B,/D/E/F/ G/F/G/^G/ | %45
 A/D/E/F/ =G/F/E/D/ |[K:bass] C/B,/C/D/ B,/G,/A,/B,/ | ^C/A,/B,/C/ ^D/B,/C/D/ | z4 | z4 | z4 | z4 | %52
 !>!G,/B,/^C/^D/ E/D/E/^E/ | F/B,/^C/^D/ =E/=D/=C/B,/ | A,/G,/A,/B,/ G,/F,/G,/B,/ | %55
 F,/E,/F,/A,/ ^G,/F,/G,/B,/ | z4 | A,/^C/B,/A,/ ^G,/E,/F,/G,/ | z4 | A,/^C/B,/A,/ ^G,/E,/F,/G,/ | %60
 A, ^G,,/^G,/!ped! A,,/A,/G,,/G,/!ped-up! | %61
!ped! A,,/A,/^G,,/^G,/!ped-up!!ped! A,,/A,/^A,,/^A,/!ped-up! | %62
!ped! B,,/B,/^A,,/^A,/!ped-up!!ped! B,,/B,/^B,,/^B,/!ped-up! | %63
!ped! ^C,/^C/C,/C/!ped-up!!ped! D,/D/^D,/^D/!ped-up! | %64
!ped! E,/E/^E,/^E/!ped-up!!ped! F,/F/F,/F/!ped-up! | %65
!ped! G,/G/^G,/^G/!ped-up!!ped! A,/A/G,/G/!ped-up! | [A,A][K:treble]!ped! ^gag!ped-up! | %67
!pp!!ped! a2 [A^ce]2!ped-up! |!ped! [Ad=f]2 z2!ped-up! |!ped! z2 [A^ce]2!ped-up! | %70
!ped! [Ad=f]2 z2!ped-up! |!ped! z2 [A^ce]2!ped-up! |!ped! z2 [Ad^f]2!ped-up! | %73
!ped! z2!p! [Aeg]2!ped-up! |!ped! z4!ped-up! |!ped! z2!mp! [A^e^g]2!ped-up! |!ped! z4!ped-up! | %77
!ped! z4!ped-up! |!ped! z4!ped-up! |[K:bass]!pp!!ped! D,, z[K:treble] D2!ped-up! | %80
!ped! F2 A2!ped-up! |!ped! _B4!ped-up! |!ped! A2 G2!ped-up! |!ped! F4!ped-up! | %84
!ped! E2 D2!ped-up! |[K:bass]!p!!ped! ^C3 B,!ped-up! |!p! A,G,F,E, | %87
!ped! x2!ped! D,,2!ped-up!!p! D,2 |!pp!!ped! E,2 F,2 | x2!ped-up!!ped! G,3 A,!ped-up! | %90
!ped!!<(! B,^CDE!ped-up!!<)! | .[DF]2 [A,G] z | z4 | z4 | z4 | z4 | z4 | z4 | z4 | z4 | z4 | z4 | %102
 z4 | z4 | z4 | z4 | z4 | z4 | z4 |!ped! !>!D,,/D,/F,/ z/ z2!ped-up! | z4 | %111
!ped! !>!A,,/E,/A,/ z/ z2!ped-up! | z4 |!ped! !>!D,,/D,/F,/ z/ z2!ped-up! | z4 | %115
!ped! !>!A,,/E,/A,/ z/ z2!ped-up! | z4 |!ped! !>!D,,/D,/F,/ z/ z2!ped-up! | %118
!ped! !>!F,,/F,/^A,/ z/ z2!ped-up! |!ped! B,,/B,/D/ z/!ped-up!!ped! D,/F,/=A,/ z/!ped-up! | %120
!ped! G,,/G,/B,/ z/!ped-up!!ped! B,,/^D,/F,/ z/!ped-up! | %121
!ped! E,/B,/E/ z/!ped-up!!ped! G,/B,/E/ z/!ped-up! |!ped! [A,^CE] z z2!ped-up! | %123
!ped! D,,/D,/F,/ z/ z2!ped-up! | z4 |!ped! !>!A,,/E,/A,/ z/ z2!ped-up! | z4 | %127
!ped! !>!D,,/D,/F,/ z/ z2!ped-up! | z4 |!ped! D,,/D,/=F,/ z/ z2!ped-up! | z4 | %131
!ped! G,,,/G,,/B,,/ z/ z2!ped-up! | z4 |!ped! [G,,,B,,,D,,G,,]2 z2!ped-up! | z4 | x4 | %136
 (3=F,B,,D, (3G,,D,,B,,, |!ped! G,,, z z2!ped-up! | z4 | x4 |(3xB,,D, (3G,,D,,B,,, | %141
!ped! G,,,2- (3G,,,B,,,D,,!ped-up! | G,,2- (3G,,B,,D, | G,2- (3G,B,D |[K:treble] G2- (3GBd | %145
!ped! =f2- (3fBf!ped-up! | =f2- (3fBf | =f2- (3fdf | a2- (3ad=f | a2- (3ad=f |!ped! a4-!ped-up! | %151
 a2- (3ad=f |!ped! a4-!ped-up! | (3ag=f (3gfd |!ped! (3ag=f (3gfd!ped-up! | a2 ^g2 | =g2 ^f2 | %157
 =f2 e2 | d2"^Cadenza" !fermata!g2 |[K:bass] x4 | x4 | x4 | x2 x2 |!>(! x4 | x4 | x4 | x4 | %167
 x4!>)! |!pp! z4 | z4 | z4 | z4 | z4 | z4 | z4 | z4 | z4 | z4 |!p! C, !>![G,CE]3 | C, !>![G,CE]3 | %180
 C,[G,CE]C,[G,CE] | C, !>![G,CE]3 | A,,[A,CE]C,[A,CE] | D, !>![A,D^F]3 | D, [A,DF]3 | G, [B,DG]3 | %186
 C,[A,CE]D,[A,CF] | G,, [D,G,B,]3 | z4 | z4 | z4 | z4 |[K:treble] B,/G/D/G/ A,/A/D/A/ | %193
 B,/G/D/G/ A,/F/D/F/ |[K:bass] G,/G/D/G/ F,/F/D/F/ | E,/E/A,/G/ [DF] z | z4 |[K:treble] E/G/F z2 | %198
 z4 | z4 | z4 | z4 | z4 | z4 | z4 | z4 | z4 | z4 | z4 | z4 | z4 | z4 | %212
!f! _B,/D/!ped!E/F/!ped-up!!ped! G/F/G/^G/!ped-up! | %213
!ped! A/D/E/F/!ped-up!!ped! =G/=F/_E/D/!ped-up! | %214
[K:bass]!ped! C/_B,/C/D/!ped-up!!ped! B,/G,/A,/!ped-up!B,/ | %215
!ped! C/A,/_B,/C/!ped-up!!ped! D/^C/D/!ped-up!D,/ | z4 | z4 | z4 | z4 | %220
[K:treble]!f!!ped! G/_B/c/d/!ped-up!!ped! _e/d/e/!ped-up!=e/ | %221
!ped! =f/_B/c/d/!ped-up!!ped! _e/d/c/B/!ped-up! |!ped! _A/G/A/_B/!ped-up!!ped! G/_E/=F/G/!ped-up! | %223
!ped! _A/=F/G/A/!ped-up!!ped! _B/A/G/F/!ped-up! |!ped! _e/ _E/G/_B/ e/B/G/E/!ped-up! | %225
 g/_e/_B/G/ e/B/G/_E/ | _e/_B/G/_E/ e/B/G/E/ | _e/_B/G/_E/ e/B/G/E/ | %228
 z/!ped! =F/_B/d/ =f/B/d/!ped-up!f/ | _a/=f/d/_B/ f/d/B/_A/ | =f/d/_B/_A/ f/d/B/A/ | %231
 =f/d/_B/_A/ f/d/B/A/ | [_B_eg] z z2 | z4 | z4 | z4 | z/!ped! _B,/!ped-up!_D/=F/ _B/D/F/B/ | %237
 _d/_B/=F/_D/ B/F/D/_B,/ | _B/=F/_D/_B,/ B/F/D/B,/ | _B/=F/_D/_B,/ B/F/D/B,/ | %240
 z/!ped! C/=F/=A/ c/F/A/!ped-up!c/ | _e/c/A/=F/ c/A/F/_E/ | c/A/=F/_E/ c/A/F/E/ | %243
 c/A/=F/_E/ c/A/F/E/ | [_B_d] z z2 | z4 | z4 | z4 | z/!ped! =F/_A/c/ =f/A/c/!ped-up!f/ | %249
 _a/=f/c/_A/ f/c/A/=F/ | =f/c/_A/=F/ f/c/A/F/ | =f/c/_A/=F/ f/c/A/F/ | %252
 z/!ped! G/c/e/ g/c/e/!ped-up!g/ | _b/g/e/c/ g/e/c/_B/ | g/e/c/_B/ z2 | %255
[K:bass] _B,/G,/E,/C,/ B,/G,/E,/C,/ | [_E,^F,] z z2 | [_E,^F,] z .[F,A,].[A,C] | [C_E] z z2 | %259
[K:treble] [_E^F] z .[FA].[Ac] | [c_e] z (3ede | (3d=Bc (3A^GA | (3^F^EF (3_EDE | %263
 (3C=B,C (3A,^G,A, | z2 (3d^cd | (3_BAB (3GFG |[K:bass] (3D^CD (3_B,A,B, | %267
 (3G,F,G, (3[G,_B,][F,A,][G,B,] | z2[K:treble] (3_aga | (3=fef (3d^cd | (3=B_B=B (3_AGA | %271
 (3=FEF (3D^CD | z2 (3g^fg | (3_ede (3cBc | (3G=FG (3_EDE |[K:bass] (3CB,C (3G,=F,G, | %276
 z2[K:treble] (3g^fg | (3=e^de (3^c^Bc | (3G^FG (3=E^DE |[K:bass] (3^C^B,C (3G,^F,G, | %280
!ped! =D,_ED,E!ped-up! |!ped! =D,_ED,E!ped-up! |!ped! D,[K:treble]D_E=E!ped-up! | %283
!ped! =F^FG^C!ped-up! |[K:bass]!ped! =D,_ED,E!ped-up! |!ped! =D,_ED,E!ped-up! | %286
!ped! D,[K:treble]D_E=E!ped-up! |!ped! =F^FG^C!ped-up! | %288
[K:bass]!ped! D,/D/^C,/^C/!ped-up!!ped! D,/D/C,/C/!ped-up! | %289
!ped! D,/D/^C,/^C/!ped-up!!ped! D,/D/^D,/^D/!ped-up! | %290
!ped! E,/E/^D,/^D/!ped-up!!ped! E,/E/^E,/^E/!ped-up! | %291
!ped! F,/F/F,/F/!ped-up!!ped! G,/G/^G,/^G/!ped-up! | %292
[K:treble]!ped! A,/A/^A,/^A/!ped-up!!ped! B,/B/B,/B/!ped-up! | %293
!ped! C/c/^C/^c/!ped-up!!ped! D/d/C/c/!ped-up! |!ped! D/d/^C/^c/!ped-up!!ped! D/d/C/c/!ped-up! | %295
!ped! [Dd]2 [DFA]2!ped-up! |!ped! [DG_B]2 z2!ped-up! |!ped! z2 [DFA]2!ped-up! | %298
!ped! [DG_B]2 z2!ped-up! |!ped! z2 [DFA]2!ped-up! |!ped! z2 [DG=B]2!ped-up! | %301
!ped! z2 [DAc]2!ped-up! |!ped! z4!ped-up! |!ped! z2 [D^A^c]2!ped-up! |!ped! z4!ped-up! | %305
!ped! z4!ped-up! |!ped! z4!ped-up! |[K:bass]!pp!!ped! G,,, z!p! G,2!ped-up! | B,2 D2 | _E4 | %310
 D2 C2 |!ped! B,4!ped-up! |!ped! A,2 G,2!ped-up! |!ped! F,3!p! E,!ped-up! |!p! D,C,B,,A,, | %315
 x2!ped! G,,,2!ped-up!!p! G,,2 |!pp!!ped! A,,2 B,,2 | x2!ped-up!!ped! C,3 D,!ped-up! | E,F,G,A, | %319
 .[G,B,]2 [D,C] z | z4 | z4 | z4 | z4 | z4 | z4 | z4 | z4 | z4 | z4 | z4 | z4 | z4 | z4 | z4 | z4 | %336
 z4 |!ped! G,,/D,/G,/ z/ z2!ped-up! | z4 |!ped! D,,/D,/F,/ z/ z2!ped-up! | z4 | %341
!ped! G,,/D,/G,/ z/ z2!ped-up! | z4 |!ped! D,,/D,/F,/ z/ z2!ped-up! | z4 | %345
!ped! G,,/G,/B,/ z/ z2!ped-up! |!ped! B,,/B,/^D/ z/ z2!ped-up! | %347
!ped! E,/E/G/ z/[K:treble]!ped-up!!ped! G,/G/B/ z/!ped-up! | %348
!ped! C/c/e/ z/[K:bass]!ped-up!!ped! E,/E/^G/ z/!ped-up! | %349
[K:treble]!ped! A,/A/c/ z/!ped-up!!ped! C/E/A/ z/!ped-up! |!ped! [DFA] z z2!ped-up! | %351
[K:bass]!ped! G,,/D,/G,/ z/ z2!ped-up! | z4 |!ped! D,,/D,/F,/ z/ z2!ped-up! | z4 | %355
!ped! G,,/D,/G,/ z/ z2!ped-up! | z4 |!ped! G,,/D,/G,/ z/ z2!ped-up! | z4 | %359
!ped! _E,,/_E,/G,/ z/ z2!ped-up! | z4 |!ped! [_E,,G,,_B,,_E,] z z2!ped-up! | z4 | x4 | %364
 (3G,_B,,_E, (3_E,,_B,,G,, |!ped! [_E,,G,,_B,,_E,] z z2!ped-up! | z4 | x4 | %368
 (3G,_B,,_E, (3_E,,_B,,G,, |!ped! _E,,2 (3E,,G,,_B,,!ped-up! | _E,2- (3E,G,_B, | %371
[K:treble] _E2- (3EG_B | _e2- (3e_Be | g2- (3g_B_e | g2- (3g_B_e | g2- (3g_B_e | g2- (3g_B_e | %377
 g2- (3g_B_e | g2- (3g_B_e |!ped! g2- (3gc_e!ped-up! |!ped! A2- (3AAc!ped-up! | %381
!ped! =f2- (3fAc!ped-up! | =f2- (3f_Bd |!ped! =f2- (3fAc!ped-up! | =f2- (3f_Bd | %385
!ped! =f2- (3fAc!ped-up! | =f2- (3f_Bd |!ped! g2- (3g=Bd!ped-up! | g2- (3gc_e | %389
!ped! g2- (3gBd!ped-up! | g2- (3gc_e |!ped! A/=f/c/f/ A/f/c/f/!ped-up! | %392
!ped! _B/=f/d/f/ B/f/d/f/!ped-up! |!ped! A/=f/c/f/ A/f/c/f/!ped-up! | %394
!ped! _B/=f/d/f/ B/f/d/f/!ped-up! |!ped! =B/g/d/g/ =B/g/d/g/!ped-up! | %396
!ped! c/g/_e/g/ c/g/e/g/!ped-up! |!ped! B/g/d/g/ B/g/d/g/!ped-up! | %398
!ped! c/g/_e/g/ c/e/c/e/!ped-up! | !^!c z z2 | z4 | z4 | z4 | z4 | z4 | z4 | z4 | z4 | z4 | z4 | %410
 z =FBd | !>!=f2 dB | !>!=F2 DB, |[K:bass] !>!=F,2 D,B,, |!ped! !>!=F,,2 B,,D,!ped-up! | =F,2 B,D | %416
[K:treble] =F2 Bd | =f2 Bd |!ped! =f2 Bd!ped-up! | =f2 Bd |!ped! =f2 Bd!ped-up! | =f2 Bd | =f2 Bd | %423
 g2 !fermata!=f!fermata!d |"^Cadenza (ad lib.)"!ped! x4!ped-up! | x4 |!ped! x4!ped-up! | x4 | %428
 z/ C/e/ z/ z2 | z/ C/e/ z/ z2 | C/e/ z C/e/ z | C/e/ z z2 | C/e/ z C/e/ z | %433
[K:bass] ^F,/[I:staff -1]A/[I:staff +1] z z2 | %434
 F,/[I:staff -1]A/[I:staff +1] z D,/[I:staff -1]F/[I:staff +1] z | %435
 G,/[I:staff -1]B/[I:staff +1] z E,/[I:staff -1]G/[I:staff +1] z | C,/E/ z D,/F/ z | G,,/B,/ z z2 | %438
 z4 | z4 | z4 | z4 | z4 | z4 | z4 | z4 | z4 | z4 | z4 | z4 | z4 | %451
[K:treble]!f! B,/D/E/F/ G/F/G/^G/ | A/D/E/F/ =G/F/E/D/ |[K:bass] C/B,/C/D/ B,/G,/A,/B,/ | %454
 C/A,/B,/C/ D/^C/D/D,/ |[K:treble]!ped! G,/G,/B,/D/ G/B/d/!ped-up!B/ | %456
!ped! !>!c/e/A/c/ F/A/D/F/!ped-up! |!ped! G/B/D/G/[K:bass] B,/D/G,/B,/!ped-up! | %458
!ped! C/E/A,/C/ F,/A,/D,/F,/!ped-up! |!ped! G,/G,,/B,,/D,/ G,/B,/D/B,/!ped-up! | %460
!ped! !>!C/E/A,/C/ F,/A,/C,/F,/!ped-up! |!ped! A,,/C,/F,/C,/ A,/F,/C/A,/!ped-up! | %462
[K:treble] (3FCA (3FcA | (3FcA (3FcA | (3FcA (3F^cA | (3F^cA (3Fc^A | (3F^c^A (3FcA | %467
!ped! (3F^c^A (3FcA!ped-up! | (3F^c^A (3FcA | (3F^c^A (3FcA | (3F^c^A (3FcA | %471
[K:bass]!pp!!ped! F,,, ^C^A,C!ped-up! | ^A,^CA,C | B,^CB,C | B,^CB,C | [F,F] z z2 | z4 | z4 | z4 | %479
 =C,,[K:treble] =GEG | EGEG | =FGFG | =FGFG | E z z2 | z4 | z4 | z/ D/E/^F/ G/A/B/c/ | d2 z2 | %488
[K:bass] z/ D,/E,/F,/ G,/A,/B,/C/ | D z z2 |[K:treble] z/ D/E/^F/ G/A/B/c/ | d2 z2 | %492
[K:bass] z/ D,/E,/F,/ G,/A,/B,/C/ | D2 z2 |[K:treble] z/ D/E/F/ G/A/B/c/ | %495
!ped! d/D/E/F/ G/A/B/c/!ped-up! |!ped! d/D/E/F/ G/A/B/c/!ped-up! |!ped! d/D/E/F/ G/A/B/c/!ped-up! | %498
!ped! d/D/E/F/ G/A/B/c/!ped-up! | d z z2 | z4 | z4 |[K:bass] z4 | z4 | z4 | z4 | z4 | z4 | z4 | %509
 z4 | z4 | z4 ||[M:4/4]"^Cadenza"!f! [G,,G,] z [A,,A,] z [B,,B,] z [^C,,^C,] z | %513
 [D,,D,] z z2 z2 [E,,E,] z | [A,,A,] z [B,,B,] z [C,C] z [^D,,^D,] z | [E,,E,] z z2 z2 [F,,F,] z | %516
 [B,,B,] z [^C,^C] z [D,D] z [^G,,^G,] z | [A,,A,] z [B,,B,] z [=C,=C] z [F,,F,] z | %518
 [G,,G,] z [A,,A,] z [B,,B,] z [^C,,^C,] z | [D,,D,] z [G,,G,] z [B,,B,] z [^D,,^D,] z | %520
 [E,,E,] z [G,,G,] z [B,,B,] z [E,,E,] z | [=F,,=F,] z [B,,B,] z [D,D] z [=F,=F] z || %522
[M:2/4][K:treble]!pp!!ped! EGEG!ped-up! | EGEG |!ped! =FGFG!ped-up! | =FGFG || %526
[M:4/4]!ped! E2 z2!ped-up!!ped! B,/C/D/E/ =F/G/A/B/ | %527
!ped! C/D/E/=F/ G/A/B/c/!ped-up!!ped! D/E/^F/G/ A/B/c/d/!ped-up! || %528
[M:2/4][K:bass]!p!!ped! G,, DB,D | x4!ped-up! B,DB,D |!ped! CDCD!ped-up! | CDCD | %532
!ped! z/ G,/B,/D/ G z!ped-up! | z4 | z/!ped! D,/A,/C/ D z!ped-up! | z4 | %536
 z/!ped! G,,/B,,/D,/ G, z!ped-up! | z4 | z/!ped! D,,/A,,/C,/ D, z!ped-up! | z4 || %540
[M:4/4] z/!ped! G,/B,/D/ !>!G z!ped-up! z/!ped-up!!ped! B,,/^D,/F,/ !>!B, z | %541
 z/!ped! E,,/G,,/B,,/ E, z z/!ped-up!!ped! G,,/B,,/=D,/ G, z!ped-up! | %542
!ped! !^!C, z !^!E, z!ped-up!!ped! !^!A, z !^!D, z!ped-up! | %543
!ped! !^!G, z !^!_E, z !^!_E,, z [_E,_E] z!ped-up! | z8 | %545
!ped! !^!A, z !^!A,, z !^!A,,, z!ped-up! [A,,^C,=E,A,] z | z8 ||[M:2/4]!ped! D,, z z2 | x2!ped-up! %548
 z4 |[K:treble]!ped! TA,2 TA2!ped-up! |!ped! Ta4!ped-up! |!ped! TA,2 TA2!ped-up! | %552
!ped! Ta4-!ped-up! | a4- | a4 |!ped! [Bd=f^g]4-!ped-up! | [Bdfg]2!ped-up!!ped! z2 | %557
!ped! z4!ped-up!!ped!!ped-up! |!ped! z2!pp!!ped-up!!ped! [CEA]2!ped-up! | %559
!ped! z2!ped-up!!ped! [D=G]2!ped-up! |!ped! z2!ped-up!!ped! [CD]2!ped-up! | %561
[K:bass]!f!!ped! (3B,,,!>(!D,,=F,, (3B,,D,=F,!ped-up! | z4!>)! | z2[K:treble] (3Bd=f | %564
 (3=fed (3cBA | (3edc (3BAG | (3dcB (3AG^F |"^leggiermente"!ped! !>!D2 z/ G/B/d/!ped-up! | %568
 !>!D2 z/ G/B/d/ |!ped! !>!E2 z/ G/c/e/!ped-up! | !>!E2 z/ G/c/e/ |!ped! !>!E2 z/ G/c/e/!ped-up! | %572
!ped! !>!F2 z/ A/c/d/!ped-up! |!ped! !>!D2 z/ A/c/d/!ped-up! |!ped! !>!D2 z/ G/B/d/!ped-up! | %575
!ped! !>!D2 z/ F/A/d/!ped-up! |!ped! !>!D2!p!!ped-up!!ped! [B,D]2-!ped-up! | %577
 [B,D]2!ped-up!!ped! [DG][GB] |!ped! [Bd]4!ped-up! |!ped! [CE]2!ped-up!!ped! [EG][Gc]!ped-up! | %580
!ped! [ce]4!ped-up! |!ped! [ce]2!ped-up!!ped! [Ac]2!ped-up! |!ped! [^FA]4-!ped-up! | %583
 [FA]2!ped-up!!ped! [Dd]2 |!ped! [GB]2!ped-up!!ped! [B,G]2!ped-up! | %585
!ped! [CA]2!ped-up!!ped! [CD]2!ped-up! |!ped! B,2!ped-up!!ped! [B,G]2!ped-up! | %587
!ped! [CA]2!ped-up!!ped! [CD]2!ped-up! |!ped! B,2!ped-up!!ped! [B,G]2!ped-up! | %589
!ped!"_dim." [CA]2!ped-up!!ped! [CD]2!ped-up! |!ped! [CA]2!ped-up!!ped! [CD]2!ped-up! | %591
!ped! [CA]2!ped-up!!ped! [CD]2!ped-up! |!ped! [CA]2!pp!!ped-up!!ped! [CD]2!ped-up! | %593
 .[GB]2 .[Ac]2 | .[Bd]2 .[Bd]2 | .[Ac]2 .[GB]2 | .[FA]2 .[DF]2 | [GB]2 [Ac]2 | [Bd]2 [Bd]2 | %599
 [Ac]2 [GB]2 | [FA]2 !fermata![DFAc]2 | Td4- | d4 | Tf4- | f4 | Ta4- | a4 | %607
!ped! (3bc'b (3c'bc'!ped-up! | (3bc'b (3c'bc' | (3bc'b (3c'bc' | c'2 [DFAc]2 | %611
!ped! [G,=F][B,D][G,F][B,D]!ped-up! | [G,=F][B,D][G,F][B,D] | [G,=F][B,D][G,F][B,D] | %614
 [G,=F][B,D][G,F][B,D] |[K:bass] [C,E,G,C]2 z2 | z4 | z4 | z4 | z4 | z4 | z4 | z4 | z4 | z4 | z4 | %626
 z2[I:staff -1] [GB]2 |[I:staff +1] z2[I:staff -1] [CEAc]2 |[I:staff +1] z2[I:staff -1] [DFAc]2 | %629
[I:staff +1][K:treble]!ped! G2 B2!ped-up! |!ped! D2 A2!ped-up! |!ped! G,2 G2!ped-up! | %632
!ped! D2 A2!ped-up! |!ped! G2 B2!ped-up! |!ped! D2 A2!ped-up! |!ped! G,2 G2!ped-up! | %636
!ped! D2 A2!ped-up! |!ped! G,2 G2!ped-up! |[K:bass]!ped! D,2 D2!ped-up! |!ped! G,,2 G,2!ped-up! | %640
!ped! D,,2 D,2!ped-up! |!ped! (3G,,,B,,,D,, (3G,,,B,,,D,,!ped-up! | (3G,,,B,,,D,, (3G,,,B,,,D,, | %643
 (3G,,,B,,,D,, (3G,,,B,,,D,, | (3G,,,B,,,D,, (3G,,,B,,,D,, | G,,,2 z2 | [D,,F,,A,,D,]2 z2 | %647
 [G,,,B,,,D,,G,,]2 z2 |] %648
V:3
 x4 | x4 | x4 | x4 | x4 | x4 | x4 | x4 | x4 | x4 | x4 | x4 | x4 | x4 | x4 | x4 | x4 | x4 | x4 | %19
 x4 | x4 | x4 | x4 | x4 | d4- | dd c2 | B2 A2 | B^cd x | x4 | x4 | x4 | x4 | x4 | x4 | x4 | x4 | %36
 x4 | x4 | x4 | x4 | x4 | x4 | x4 | x4 | x4 | x4 | x4 | x4 | x4 | x4 | x4 | x4 | x4 | x4 | x4 | %55
 x4 | x4 | x4 | x4 | x4 | x4 | x4 | x4 | x4 | x4 | x4 | x4 | x4 | x4 | x4 | x4 | x4 | x4 | x4 | %74
 x4 | x4 | x4 | x4 | x4 | x4 | x4 | x4 | x4 | x4 | x4 | x4 | x4 | x6 | x4 | x4 | x4 | x4 | x4 | %93
 x4 | x4 | x4 | x4 | x4 | x4 | x4 | x4 | x4 | x4 | x4 | x4 | x4 | x4 | x4 | x4 | x4 | x4 | x4 | %112
 x4 | x4 | x4 | x4 | x4 | x4 | x4 | x4 | x4 | x4 | x4 | x4 | x4 | x4 | x4 | x4 | x4 | x4 | x4 | %131
 x4 | x4 | x4 | x4 | x4 | x4 | x4 | x4 | x4 | x4 | x4 | x4 | x4 | x4 | x4 | x4 | x4 | x4 | x4 | %150
 x4 | x4 | x4 | x4 | x4 | x4 | x4 | x4 | x4 | x4 | x4 | x4 | x4 | x4 | x4 | x4 | x4 | x4 | x4 | %169
 x4 | x4 | x4 | x4 | x4 | x4 | x4 | x4 | x4 | x4 | x4 | x4 | x4 | x4 | x4 | x4 | x4 | x4 | x4 | %188
 x4 | x4 | x4 | x4 | d4- | dd c2 | B2 A2 | B^cd x | x4 | x4 | x4 | x4 | x4 | x4 | x4 | x4 | x4 | %205
 x4 | x4 | x4 | x4 | x4 | x4 | x4 | x4 | x4 | x4 | x4 | x4 | x4 | x4 | x4 | x4 | x4 | x4 | x4 | %224
 x4 | x4 | x4 | x4 | x4 | x4 | x4 | x4 | x4 | x4 | x4 | x4 | x4 | x4 | x4 | x4 | x4 | x4 | x4 | %243
 x4 | x4 | x4 | x4 | x4 | x4 | x4 | x4 | x4 | x4 | x4 | x4 | x4 | x4 | x4 | x4 | x4 | x4 | %261
 (3_ede (3d=Bc | (3A^GA (3^F^EF | (3_EDE (3C=B,C | x4 | (3d^cd (3_BAB | G2 (3D^CD | (3_B,A,B, x2 | %268
 x4 | (3_aga (3=fef | (3d^cd (3=B_B=B | (3_AGA (3=FEF | x4 | (3g^fg (3_ede | (3cBc (3G=FG | %275
 (3_EDE x2 | x4 | (3g^fg (3=e^de | (3^c^Bc (3G^FG | (3=E^DE x2 | x4 | x4 | x4 | x4 | x4 | x4 | x4 | %287
 x4 | x4 | x4 | x4 | x4 | x4 | x4 | x4 | x4 | x4 | x4 | x4 | x4 | x4 | x4 | x4 | x4 | x4 | x4 | %306
 x4 | x4 | x4 | x4 | x4 | x4 | x4 | x4 | x4 | x6 | x4 | x4 | x4 | x4 | x4 | x4 | x4 | x4 | x4 | %325
 x4 | x4 | x4 | x4 | x4 | x4 | x4 | x4 | x4 | x4 | x4 | x4 | x4 | x4 | x4 | x4 | x4 | x4 | x4 | %344
 x4 | x4 | x4 | x4 | x4 | x4 | x4 | x4 | x4 | x4 | x4 | x4 | x4 | x4 | x4 | x4 | x4 | x4 | x4 | %363
 x4 | x4 | x4 | x4 | x4 | x4 | x4 | x4 | x4 | x4 | x4 | x4 | x4 | x4 | x4 | x4 | x4 | x4 | x4 | %382
 x4 | x4 | x4 | x4 | x4 | x4 | x4 | x4 | x4 |!8va(! x4 | x4 | x4 | x4 | x4 | x4 | x4 | x4 | %399
 x!8va)! x3 | x4 | x4 | x4 | x4 | x4 | x4 | x4 | x4 | x4 | x4 | x4 | x4 | x4 | x4 | x4 | x4 | x4 | %417
 x4 | x4 | x4 | x4 | x4 | x4 | x4 | x4 | x4 | x4 | x4 | x4 | x4 | x4 | x4 | x4 | x4 | x4 | x4 | %436
 x4 | x4 | x4 | x4 | x4 | x4 | x4 | x4 | x4 | x4 | x4 | x4 | x4 | x4 | x4 | x4 | x4 | x4 | x4 | %455
 x4 | x4 | x4 | x4 | x4 | x4 | x4 | x4 | x4 | x4 | x4 | x4 | x4 | x4 | x4 | x4 | x4 | x4 | x4 | %474
 x4 | x4 | x4 | x4 | x4 | x4 | x4 | x4 | x4 | x4 | x4 | x4 | x4 | x4 | x4 | x4 | x4 | x4 | x4 | %493
 x4 | x4 | x4 | x4 | x4 | x4 | x4 | x4 | x4 | x4 | x4 | x4 | x4 | x4 | x4 | x4 | x4 | x4 | x4 || %512
[M:4/4] x8 | x8 | x8 | x8 | x8 | x8 | x8 | x8 | x8 | x8 ||[M:2/4] x4 | x4 | x4 | x4 ||[M:4/4] x8 | %527
 x8 ||[M:2/4] x4 | x4 | x4 | x4 | x4 | x2!8va(! x2 | x4 | x2!8va)! x2 | x4 | x4 | x4 | x4 || %540
[M:4/4] x8 | x8 | x8 | x8 | x8 | x8 | x8 ||[M:2/4] x4 | x4 | x4 | x4 | x4 | Tc'4- | c'4- | c'4 | %555
 x4 | x4 | x4 | x4 | x4 | x4 | x4 | x4 | x4 | x4 | x4 | x4 | x4 | x4 | x4 | x4 | x4 | x4 | x4 | %574
 x4 | x4 | x4 | x4 | x4 | x4 | x4 | x4 | x4 | x4 | x4 | x4 | x4 | x4 | x4 | x4 | x4 | x4 | x4 | %593
 x4 | x4 | x4 | x4 | x4 | x4 | x4 | x4 |!8va(! x4 | x4 | x4 | x4 | x4 | x4 | x4 | x4 | x4 | x4 | %611
 d'=f'd'f' | d'=f'd'f' | d'=f'd'f' | d'=f'd'f' | x2!8va)! x2 | x4 | x4 | x4 | x4 | x4 | x4 | x4 | %623
 x4 | x4 | x4 | x4 | x4 | x4 |!8va(! x4 | x4 | x4 | x4 | x4 | x4 | x4 | x4 | x4 | x4 | x4 | x4 | %641
 x2!8va)! x2 | x4 | x4 | x2!8va(! x2 | x4 | x4 | x2!8va)! x2 |] %648
V:4
 x4 | x4 | x4 | x4 | x4 | x4 | x4 | x4 | x4 | x4 | x4 | x4 | x4 | x4 | x4 | x4 | x4 | x4 | x4 | %19
 x4 | x4 | x4 | x4 | x4 |[K:treble] x4 | x4 |[K:bass] x4 | x4 | x4 |[K:treble] !>!A,D x2 | x4 | %31
 x4 | x4 | x4 | x4 | x4 | x4 | x4 | x4 | x4 | x4 | x4 | x4 | x4 | x4 | x4 |[K:bass] x4 | x4 | x4 | %49
 x4 | x4 | x4 | x4 | x4 | x4 | x4 | x4 | x4 | x4 | x4 | x4 | x4 | x4 | x4 | x4 | x4 | %66
 x[K:treble] x3 | x4 | x4 | x4 | x4 | x4 | x4 | x4 | x4 | x4 | x4 | x4 | x4 | %79
[K:bass] x2[K:treble] x2 | x4 | x4 | x4 | x4 | x4 |[K:bass] x4 | x4 | x6 | x4 | x4 | x4 | x4 | x4 | %93
 x4 | x4 | x4 | x4 | x4 | x4 | x4 | x4 | x4 | x4 | x4 | x4 | x4 | x4 | x4 | x4 | x4 | x4 | x4 | %112
 x4 | x4 | x4 | x4 | x4 | x4 | x4 | x4 | x4 | x4 | x4 | x4 | x4 | x4 | x4 | x4 | x4 | x4 | x4 | %131
 x4 | x4 | x4 | x4 | x4 | x4 | x4 | x4 | x4 | x4 | x4 | x4 | x4 |[K:treble] x4 | x4 | x4 | x4 | %148
 x4 | x4 | x4 | x4 | x4 | x4 | x4 | x4 | x4 | x4 | x4 |[K:bass] x4 | x4 | x4 | x4 | x4 | x4 | x4 | %166
 x4 | x4 | x4 | x4 | x4 | x4 | x4 | x4 | x4 | x4 | x4 | x4 | x4 | x4 | x4 | x4 | x4 | x4 | x4 | %185
 x4 | x4 | x4 | x4 | x4 | x4 | x4 |[K:treble] x4 | x4 |[K:bass] x4 | x4 | x4 | %197
[K:treble] !>!A,D x2 | x4 | x4 | x4 | x4 | x4 | x4 | x4 | x4 | x4 | x4 | x4 | x4 | x4 | x4 | x4 | %213
 x4 |[K:bass] x4 | x4 | x4 | x4 | x4 | x4 |[K:treble] x4 | x4 | x4 | x4 | x4 | x4 | x4 | x4 | x4 | %229
 x4 | x4 | x4 | x4 | x4 | x4 | x4 | x4 | x4 | x4 | x4 | x4 | x4 | x4 | x4 | x4 | x4 | x4 | x4 | %248
 x4 | x4 | x4 | x4 | x4 | x4 | x4 |[K:bass] x4 | x4 | x4 | x4 |[K:treble] x4 | x4 | x4 | x4 | x4 | %264
 x4 | x4 |[K:bass] x4 | x2 (3D,=C,D, | x2[K:treble] x2 | x4 | x4 | x4 | x4 | x4 | x4 |[K:bass] x4 | %276
 x2[K:treble] x2 | x4 | x4 |[K:bass] x4 | x4 | x4 | x[K:treble] x3 | x4 |[K:bass] x4 | x4 | %286
 x[K:treble] x3 | x4 |[K:bass] x4 | x4 | x4 | x4 |[K:treble] x4 | x4 | x4 | x4 | x4 | x4 | x4 | %299
 x4 | x4 | x4 | x4 | x4 | x4 | x4 | x4 |[K:bass] x4 | x4 | x4 | x4 | x4 | x4 | x4 | x4 | x6 | x4 | %317
 x4 | x4 | x4 | x4 | x4 | x4 | x4 | x4 | x4 | x4 | x4 | x4 | x4 | x4 | x4 | x4 | x4 | x4 | x4 | %336
 x4 | x4 | x4 | x4 | x4 | x4 | x4 | x4 | x4 | x4 | x4 | x2[K:treble] x2 | x2[K:bass] x2 | %349
[K:treble] x4 | x4 |[K:bass] x4 | x4 | x4 | x4 | x4 | x4 | x4 | x4 | x4 | x4 | x4 | x4 | x4 | x4 | %365
 x4 | x4 | x4 | x4 | x4 | x4 |[K:treble] x4 | x4 | x4 | x4 | x4 | x4 | x4 | x4 | x4 | x4 | x4 | %382
 x4 | x4 | x4 | x4 | x4 | x4 | x4 | x4 | x4 | x4 | x4 | x4 | x4 | x4 | x4 | x4 | x4 | x4 | x4 | %401
 x4 | x4 | x4 | x4 | x4 | x4 | x4 | x4 | x4 | x4 | x4 | x4 |[K:bass] x4 | x4 | x4 |[K:treble] x4 | %417
 x4 | x4 | x4 | x4 | x4 | x4 | x4 | x4 | x4 | x4 | x4 | x4 | x4 | x4 | x4 | x4 |[K:bass] x4 | x4 | %435
 x4 | x4 | x4 | x4 | x4 | x4 | x4 | x4 | x4 | x4 | x4 | x4 | x4 | x4 | x4 | x4 |[K:treble] x4 | %452
 x4 |[K:bass] x4 | x4 |[K:treble] x4 | x4 | x2[K:bass] x2 | x4 | x4 | x4 | x4 |[K:treble] x4 | x4 | %464
 x4 | x4 | x4 | x4 | x4 | x4 | x4 |[K:bass] x4 | x4 | x4 | x4 | x4 | x4 | x4 | x4 | %479
 x[K:treble] x3 | x4 | x4 | x4 | x4 | x4 | x4 | x4 | x4 |[K:bass] x4 | x4 |[K:treble] x4 | x4 | %492
[K:bass] x4 | x4 |[K:treble] x4 | x4 | x4 | x4 | x4 | x4 | x4 | x4 |[K:bass] x4 | x4 | x4 | x4 | %506
 x4 | x4 | x4 | x4 | x4 | x4 ||[M:4/4] x8 | x8 | x8 | x8 | x8 | x8 | x8 | x8 | x8 | x8 || %522
[M:2/4][K:treble][I:staff -1] [Gc]2[I:staff +1] x2 | x4 | x4 | x4 ||[M:4/4] x8 | x8 || %528
[M:2/4][K:bass] x4 | x4 | x4 | x4 | x4 | x4 | x4 | x4 | x4 | x4 | x4 | x4 ||[M:4/4] x8 | x8 | x8 | %543
 x8 | x8 | x8 | x8 ||[M:2/4] x4 | x4 |[K:treble] x4 | x4 | x4 | x4 | x4 | x4 | x4 | x4 | x4 | x4 | %559
 x4 | x4 |[K:bass] x4 | x4 | x2[K:treble] x2 | x4 | x4 | x4 | x4 | x4 | x4 | x4 | x4 | x4 | x4 | %574
 x4 | x4 | x4 | x4 | x4 | x4 | x4 | x4 | x4 | x4 | x4 | x4 | x4 | x4 | x4 | x4 | x4 | x4 | x4 | %593
 x4 | x4 | x4 | x4 | x4 | x4 | x4 | x4 | x4 | x4 | x4 | x4 | x4 | x4 | x4 | x4 | x4 | x4 | x4 | %612
 x4 | x4 | x4 |[K:bass] x4 | x4 | x4 | x4 | x4 | x4 | x4 | x4 | x4 | x4 | x4 | x4 | x4 | x4 | %629
[K:treble] G4 | D4 | G,4 | D4 | G4 | D4 | G,4 | D4 | G,4 |[K:bass] D,4 | G,,4 | D,,4 | x4 | x4 | %643
 x4 | x4 | x4 | x4 | x4 |] %648
V:5
!pp! [G,CE]2 z [G,CE]/[G,CE]/ | [G,CE]2 z [G,CE]/[G,CE]/ | [G,CE] z .[EG].[Gc] | [ce] z z2 | %4
 .[Ece].[Bd]/.[ce]/ .[EAc].[GB]/.[Ac]/ | [FA] z z2 | .[DFA].[EG]/.[FA]/ .[DFd].[Gc]/.[Ad]/ | %7
 .[DGB].[GA]/.B/ .[B,G] z | .[EA] z .[F,A,D] z | !>!B,4 | z4 | z4 | z4 | z4 | z4 | z4 | z4 | z4 | %18
 z4 | z4 |!p! GF/G/ AG/F/ | Gd c2 | BA/G/ AG/F/ | [B,G][G,^CE][F,D] z | z4 | z4 | z4 | z4 | %28
 [B,G][^CE]D z | z2 [B,G]/[CE]/.D | g/e/.d!p! [gg']/e'/.d' |!ff! [Ece]2 z!ff! [Ece]/[Ece]/ | %32
 [Ece]2 z!ff! [Ece]/[Ece]/ | [Ece] z!ff! [eg][gc'] | .[ec'e'] z z2 | %35
 .[ec'e'].[bd']/.[c'e']/ .[cac'].[gb]/.[ac']/ | [Afa] z z2 | %37
 .[Afa].[eg]/.[fa]/ .[fd'].[ec']/.[fd']/ | .[Bgb].[fa]/.[gb]/ [GBg] z | [GAea] z [FAd] z | %40
 [dbd']3!f! .B | .[bc'].c .[ab].B | .[ga].A .g.G | .[ga].[GA] .[Adf]Tf | z4 | z4 | z4 | z4 | %48
!f! [Bb]3 B | .a.[AB] .g.[GB] | .f.[FB] .e.[EGB] | .f.[FA] .[FA^d]Td | z4 | z4 | z4 | z2 z!p! e | %56
!f! aA bB | z4 |!f! aA bB | z4 | [A,A] z z2 | z4 | z4 | z4 | z4 | z4 | z4 |!p! .[A,A]2 z2 | %68
 z2!pp! !arpeggio![A,D=F]2 | !arpeggio![A,^CE]2 z2 | z2 !arpeggio![A,D=F]2 | %71
 !arpeggio![A,^CE]2 z2 | !arpeggio![A,D=F]2 z2 | !arpeggio![A,EG]2 z2 | z4 | %75
 z2 !arpeggio![A,^E^G]2 | z4 | z4 | z4 | !arpeggio![A,FA]2 z2 | z4 | z4 | z4 | z4 | z4 | z4 | z4 | %87
 z4 z2 | z4 | z4 | z4 |!f! z2 E2- |!>(! E4-!>)! | E4 |!pp! F2 G2 | A4- | A2 G[I:staff +1]F | %97
[I:staff -1] [G-^c]4 | d2 e2 | f4 | z ede | [Fd]2 [E^c-]2 | b2 ^c'2 | [dd']2 a2- | a2 gf | %105
"_cresc." [Ff]2 [Ee]2- | [Ee]!>(!A=B^c!>)! |!p! [Dd]3 [E^ce]- | [ce]AB^c |!f! .[FAd].[Adf] z2 | %110
 z4 | z [GA^cg] z2 | z4 |!f! F [Adf] z2 | z4 | z [GA^cg] z2 | z4 |!f! F [Adf] z2 |!f! E [^ce] z2 | %119
 z!p! [fbd'] z [da=c'] | z [dgb] z [Bfa] | z [Beg] z [Beg] | [^ce] z z2 |!pp! F [Adf] z2 | z4 | %125
 z [A^cg] z2 | z4 | F [Adf] z2 | z4 | z4 | z4 | =F [B=f] z2 | z4 |!f! =F [B=f]3- | [Bf]4- | [Bf]4 | %136
 [B=f] z [Bf] z |!f! =F [B=f]3- | [Bf]4- | [Bf]4 |!p! [B=f] z [Bf] z | %141
 [B=f] z z!p! [B,D=F]/[B,DF]/ | [B,D=F] z z [B=f]/[Bf]/ | [B=f] z z [B,D=F]/[B,DF]/ | %144
 [B,D=F] z z [B=f]/[Bf]/ | [B=f] z z2 | z4 | z4 | z4 | z [B=f]/[Bf]/ [Bf]!f! [B,D=F]/[B,DF]/ | %150
 [B,D=F] z z2 | z!p! [B=f]/[Bf]/ [Bf]!f! [B,D=F]/[B,DF]/ | [B,D=F] z z2 | z4 | z4 |!pp! [B,D=F]4- | %156
 [B,DF]4- | [B,DF]4- | [B,DF]2 !fermata![B,D=F]2 | x4 | x4 | x4 | x4 | x4 | x4 | x4 | x4 | x4 | %168
!pp! [G,CE]2 z [G,CE]/[G,CE]/ | [G,CE]2 z [G,CE]/[G,CE]/ | [G,CE] z .[EG].[Gc] | [ce] z z2 | %172
 .[Ece].[Bd]/.[ce]/ .[EAc].[GB]/.[Ac]/ | [FA] z z2 | .[DFA].[EG]/.[FA]/ .[DFd].[Gc]/.[Ad]/ | %175
 .[DGB].[GA]/.B/ .[B,G] z | .[EA] z .[F,A,D] z | !>!B,4 | z4 | z4 | z4 | z4 | z4 | z4 | z4 | z4 | %186
 z4 | z4 |!p! GF/G/ AG/F/ | Gd c2 | BA/G/ AG/F/ | [B,G][G,^CE][F,D] z | z4 | z4 | z4 | z4 | %196
 [B,G][^CE]D z | z2 [B,G]/[CE]/.D | g/e/.d!p! [gg']/e'/.d' |!ff! [Ece]2 z!ff! [Ece]/[Ece]/ | %200
 [Ece]2 z!ff! [Ece]/[Ece]/ | [Ece] z!ff! [eg][gc'] | .[ec'e'] z z2 | %203
 .[ec'e'].[bd']/.[c'e']/ .[cac'].[gb]/.[ac']/ | [Afa] z z2 | %205
 .[Afa].[eg]/.[fa]/ .[fd'].[ec']/.[fd']/ | .[Bgb].[fa]/.[gb]/ [GBg] z | [GAea] z [FAd] z | %208
 [dbd']3!f! .B | .[bc'].c .[ab].B | .[ga].A .g.G | .[ga].[GA] .[Adf]Tf | z4 | z4 | z4 | z4 | %216
!f! [_B_b]3 B | ._a.[_A_B] .g.[GB] | .[_B=f].[=FB] .[GB_e].[_EG] | %219
 .[_Ac=f].[=FA] .[FAd]"^♭"Td/4_e/4d/4e/4 | z4 | z4 | z4 | z2 z!p! [=F,_A,D] | _E4 | z!p! G_B_e | %226
 g!p!_e_BG | x4 | [_B,=F]2 z2 | =F_Bd=f | _a!p!=fd_B | _A=FD z |!pp! [_eg] z .[g_b].[g_e'] | %233
 .[gg'] z z x | .[_eg] .[d=f]/.g/ .[c_e].[_Bd]/.e/ | [Ac] [G_B]/[Ac]/ [c_e][Bd]/[ce]/ | %236
 [_B_d] z z2 | z!p! _D=F_B | _d!p!_B=F_D | x4 | [=F,C]4 | C=FAc | _e!p!cA=F | _ECA,=F | %244
!pp! _D z .[_d=f].[f_b] | [_b_d'] z z x | ._d.[_Ac]/.d/ .[G_B].[=F_A]/.B/ | %247
 [EG] z .[G_B].[=F_A]/.[GB]/ | [_A=f]4- | [Af] _Ac=f | _a!p!=fc_A | [Af]4 | [cg]4- | [cg] x x2 | %254
 x g3 | _BGEC |!f! [CA] z z2 | z4 | z4 | z4 | z4 | .^F z .A.c | ._e z z!pp! [^fa]/[fa]/ | %263
 [fa] z z [fa]/[fa]/ | [dgd'] z z2 |!mf! .D z .G._B | .d z z!pp! [dgd']/[dgd']/ | %267
 [dgd'] z z [dgd']/[dgd']/ | [d=bd'] z z2 |!mf! .[=B,=B] z .d.=f | .[_A_a] z z!pp! [=fd']/[fd']/ | %271
 [=fd'] z z [dfd']/[dfd']/ | [cgc'] z z2 |!mf! .G z .c._e | .g z z!pp! [cgc']/[cgc']/ | %275
 [cgc'] z z [cgc']/[cgc']/ | [^cg^c'] z z2 | .G z .^c.=e | .g z z!pp! [^cg^c']/[cgc']/ | %279
 [^cg^c'] z z [cgc']/[cgc']/ |!f! [d^fd'] z z2 | z4 | z4 | z2 z!p! [G,_B,G] |!f! [F,A,D] z z2 | %285
 z4 | z4 | z2 z!p! [G,_B,G] |!f! [F,A,D] z z2 | z4 | z4 | z4 | z4 | z4 | z4 | %295
!p! !arpeggio![F,A,]2 z2 | z2 !arpeggio![G,_B,]2 | !arpeggio![F,A,]2 z2 | z2 !arpeggio![G,_B,]2 | %299
 !arpeggio![F,A,]2 z2 | !arpeggio![G,=B,]2 z2 | !arpeggio![F,A,]2 z2 | z4 | %303
 z2 !arpeggio![^F,^A,]2 | z4 | z4 | z4 |!pp! !arpeggio![G,B,D]2 z2 | z4 | z4 | z4 | z4 | z4 | z4 | %314
 z4 | z4 x2 | z4 | z4 | z4 |!f! z2 A2- |!>(! A4- | A4!>)! |!pp! B2 c2 | d4- | d2 cB | f4 | g2 a2 | %327
 b4 | z aga | [Bg]2 [Af]2- | d'4 | g4 | [ea]2 =f2 |"_cresc." [Bb]2 [Aa]2 | z!>(! def!>)! | %335
!p! g3 a- | a!<(!def!<)! |!f! .[GBg][dgb] z2 | z4 |!f! z [cdfc'] z2 | z4 |!f! z [Bdgb] z2 | z4 | %343
!f! z [cdfc'] z2 | z4 |!f! z [Bdb] z2 |!f! z [B^da] z2 | z!p! [Beg] z [gd'=f'] | %348
 z [gc'e'] z [ebd'] | z [eac'] z [ec'e'] | [A^fa] z z2 |!pp! z [dgb] z2 | z4 | z [cdfc'] z2 | z4 | %355
 z [Bdgb] z2 | z4 | z [_Bdg_b] z2 | z4 | _B [g_b] z2 | z4 |!f! G [_Bg]3- | [Bg]4- | [Bg]4 | %364
!p! [_Bg] z [Bg] z |!f! G [_Bg]3- | [Bg]4- | [Bg]4 |!p! [_Bg] z [Bg] z | %369
 [_Bg]2 z!p! [_B,_EG]/[B,EG]/ | [_B,_EG] z z [_Bg]/[Bg]/ | [_Bg]2 z!p! [_B,_EG]/[B,EG]/ | %372
 [_B,_EG] z z [_eg]/[eg]/ | [_eg] z z [_EG]/[EG]/ | [_EG] z z[K:bass] [_E,G,]/[E,G,]/ | G,4- | %376
 G,4- |!pp!"^dolce" G,2 [G,_B,][B,_E] | [_EG]4- | [EG]2 [C_E]2 | [A,C]4 | C2 =F2 | D2 _B,2 | %383
 C2 =F,2 | z4 | C2 =F,2 | z4 | D2 G,2 | z4 | D2 G,2 | z4 |[K:treble] [Cc] z =F z | %392
{/D} [_Bd] z{/=F} [d=f] z | [Cc] z =F z |{/D} [_Bd] z{/=F} [d=f] z | [Dd] z G z | %396
{/_E} [c_e] z{/G} [eg] z | [Dd] z G z |"_cresc."{/_E} [c_e] z{/G} [eg] z |!ff! [_e_e'] z [_A_a] z | %400
 [_E=Ac_e]2 z [EAce]/[EAce]/ | [_EAc_e]2 z [EAce]/[EAce]/ | [_EAc_e] z [ea][cac'] | %403
 [_ec'_e'] z [_A_a] z | [_E=Ac_e]2 z [EAce]/[EAce]/ | [_EAc_e]2 z [EAce]/[EAce]/ | %406
 [_EAc_e] z [ea][cac'] | !>![_ec'_e'] z!ff! [cac'][cea] | !>![c=e]2!ff! [cea][cac'] | %409
 !>![=fac'=f']2!ff! [cac'][ca] | [=fbd'=f'] z z2 | z4 | z4 | z4 | z4 | z4 | z4 | z4 | z4 | z4 | %420
 z4 | z4 | z4 | z4 | z4 | z4 | z4 | z4 |!pp! e4- | e4- |!<(! e4-!<)! |!p! e4 | e2 c2 | A4 | A2 d2 | %435
 B2 G2 | A4 |{/B,} G z z!ff! [Ece]/[Ece]/ | [Ece]2 z!ff! [Ece]/[Ece]/ | [Ece]2 z!ff! [Ece]/[Ece]/ | %440
 [Ece][Ece]/[Ece]/!ff! [Ece][eg]/[ec']/ | [ec'e'] z z!ff! [ec'e']/[ec'e']/ | %442
 [ec'e'][cac']/[cac']/ [cac'][Afa]/[Afa]/ | [Afa]2 z [Afa]/[eg]/ | [Afa][dfd']/e/ [ff'][gb]/f/ | %445
 [gb][Gg]/A/ [Bg][ca]/B/ | [ca][Fd]/E/ [Fd]d | !>![dbd']3 d | .[bc'].c .[ab].B | .[ga].A .g.G | %450
 .[ega].A .[Acf]F | z4 | z4 | z4 | z2 z!p! [CF] |!f! [B,G]!ff! [gg']/[gg']/ [gg'] z | z4 | z4 | %458
!p! G z D z |!f! G!ff! [gg']/[gg']/ [gg'] z | z4 | z4 |[K:bass]!f! A, z D, z | z2 A,D, | %464
 z2!mf! A,^C, | z2!mp! ^A,^C, | z4 | z4 | z4 | z4 | z4 | z4 | z4 | z4 | z4 |[K:treble] [Ff]4- | %476
 [Ff]4 | [Gg]4- | [Gg]4 | C z z2 | z4 | z4 | z4 | g4 | e2 c2 | A4 | d4 |!p! B,[B,D][B,D][B,D] | %488
 [B,D][B,D]DD | [CD][CD][CD][CD] | [CD][CD][CD][CD] | d4- | d2 cB | B2 A2- | A z z2 | %495
"_cresc." [dd']4- | [dd']2 [cc'][Bb] | [Bb]2 [Aa]2 | [Aa][Bd][Ece][Fdf] | %499
!f! [GBd]/g/[GBd]/g/ [GBd]/g/[GBd]/g/ |{agf} g[Aa][Bb][cc'] | !//-![cd]2 c'2 | %502
 [cd]/a/[cd]/b/ [cd]/c'/[cd]/d'/ |!f! [dgd'] x x2 | x4 | x4 | x4 | %507
 x/"_cresc." [Gg]/x/[Aga]/x/[_Bg_b]/x/[=Bg=b]/ | x/ [cgc']/x/[^cg^c']/x/[dgd']/x/[^dg^d']/ | %509
!ff! [ege'] z [ff'] z | [gg'] z [^CG^c] z |!fff! !fermata![Dd]4 ||[M:4/4] z8 | z8 | z8 | z8 | z8 | %517
 z8 | z8 | z8 | z8 | z8 ||[M:2/4] z4 | z4 | z4 | z4 ||[M:4/4] z8 | z8 ||[M:2/4] z4 | z4 | z4 | z4 | %532
 z4 | z4 | z4 | z4 | z4 | z4 | z4 | z4 ||[M:4/4] z8 | z8 | z8 | z8 | z8 | z8 | z8 || %547
[M:2/4]!f! [CDFA] z z2 | z4 | z4 | z4 | z4 | z4 | A z z2 | D z z2 | z4 | [^G=f]4- |!p! [Gf]4 | %558
!pp! [EAce] z [Ece] z | D z [DGB] z | z2 [DAc] z | z4 | =f4- | f4 |!p! [Ace] z [Ee] z | %565
 z2 [B,B] z | z2 [Dc] z | [B,D]2 [DG][GB] | [Bd]4 | [CE]2 [EG][Gc] | [ce]4 | [Ece]2 [Ac]2 | %572
 [A,FA]4 | [A,FA]2{/F} [Dd]2 | [B,GB]2{/D} [B,G]2 | [CA]2{/[CA]} D2 | B,2 [B,DG]2 | z2 [B,D]2 | %578
 [DG][GB] [Bd]2 | z2 [CE]2 | [EG][Gc] [ce]2 | z2 [Ee]2 | [Ac]2 [F-A]2 | z2 [FA]2 | [Dd]2 [GB]2 | %585
 z2 [CA]2 | D2 B,2 | z2 [CA]2 | D2 B,2 |"_dim." z2 [C-A]2 | D2 A2 | D2 A2 | D2 A2 |!pp! G2 z2 | %594
 z4 | A2 z2 | D2 z2 | G2 z2 | z4 | z4 | z4 |!pp! ad AD | z4 | adad | adad | c'ac'a | c'ac'a | %607
 !//-!f2 c'2 | !//-!f2 c'2 |"_cresc." [cfa]/c'/[cfa]/c'/ [cfa]/c'/[cfa]/c'/ | %610
 [cfa]/c'/[cfa]/c'/ [cfa] [cfac'] |!f! [B=fgb]2 [fgbd'=f']2 | z2 [=fgbd'=f']2 | z2 [=fgbd'=f']2 | %614
 z2 [=fgbd'=f']2 |!ff! [ec'e']2 z [ce]/E/ | [ce]2 z [ce]/E/ | [ce]2 [eg][gc'] | [ec'e'] z z2 | %619
 [ec'e'] z [cac'] z | [Adfa] z z2 | [Adfa] z [dad'] z | [Bdb] z [GBg] z | [Aa] z [DAd] z | %624
 [DGB] z!p! [Bg] z | [Aa] z [Ad] z | [GB] z z2 | [CEA]2 z2 | [A,CF]2 z2 | [B,G]2 z2 | [DFA]2 z2 | %631
 [DGB]2 z2 | [DFA]2 z2 | [B,G]4 | [DA]4 | [GB]4 | [DA]4 |"_cresc." [Gdg]4 | [Afa]4 | [Bgb]4 | %640
 [cf] [fc']3 |!f! [Bgb]2 z [bg']/g/ | [bg']2 z [Bdg]/G/ | [Bdg]2 z [bg']/g/ | [bg']2 z [dgb]/B/ | %645
 [dgb] z z2 |!ff! [FAcdf] z z2 | [GBdg] z z2 |] %648
V:6
 [C,,E,]2 z [C,,E,] | [C,,E,]2 z [C,,E,] | [C,,E,] z .[C,,E,].[C,,E,] | [C,,E,] z z2 | %4
 .[A,,,A,,].A,,/.A,,/ .[C,,C,].C,/.C,/ | [D,,D,] z z2 | .[D,,D,].D,/.D,/ .[D,,D,].E,/.F,/ | %7
 .[G,,G,].G,/.G,/ .[G,,G,] z | .[C,,C,] z .[D,,D,] z | !>![G,,D,G,]4 |!p! C,4- | C,4- | C,4- | %13
 C,4 | A,,2 C,2 | D,4- | D,4 | G,4 | C,2 D,2 | G,4 | D,4- | D,2- D,E,/F,/ | [G,,G,]2 [F,,F,]2 | %23
 [E,,E,]A,,[D,,D,] z | B,2 C2 | B,2 A,2 | G,2 F,2 | E,A,D, z | E,,[A,,,A,,]D,, z | %29
 z2 [A,,G,][D,F,] |[I:staff -1] G/[I:staff +1]E/.D G/E/.D | %31
!ped! [C,E,G,C] [C,,C,]2!ped-up! [C,E,G,C] |!ped! [C,E,G,C] [C,,C,]2!ped-up! [C,E,G,C] | %33
!ped! [C,E,G,C][C,,C,]!ped-up!!ped! [C,E,G,C]!ped-up![C,,C,] | %34
!ped! [C,E,G,C][C,,C,]!f!!ped-up!!ped! C,/E,/G,/C/-!ped-up! | %35
 [C,C] [A,,,A,,]2!f!!ped! [C,,C,]-!ped-up! | [C,,C,][D,,D,]!ped-up!!ped! D,/F,/A,/D/- | %37
 [D,D] [D,,D,]2!ped! [D,,D,]-!ped-up! | [D,,D,] [G,,G,]2 [E,,E,] | %39
!ped! [C,,C,]!ped-up! [C,C]2 [D,D] | [B,,B,]/!mf!D,/E,/F,/ G,/A,/B,/G,/ | %41
 E,/G,/F,/A,/ G,/F,/E,/D,/ | C,/B,,/C,/D,/ B,,/G,,/A,,/B,,/ | C,/A,,/B,,/C,/ D,[D,,D,] | z4 | z4 | %46
 z4 | z4 |!mf! [G,,G,]/B,,/^C,/^D,/ E,/F,/G,/E,/ | F,/B,,/^C,/^D,/ E,/=D,/=C,/B,,/ | %50
 A,,/G,,/A,,/B,,/ G,,/E,/F,/G,/ | A,/F,/G,/A,/!ped! B,!ped-up!B,, | z4 | z4 | z4 | z4 | %56
 A,,/^C,/B,,/A,,/ ^G,,/E,,/F,,/G,,/ | z4 | A,,/^C,/B,,/A,,/ ^G,,/E,,/F,,/G,,/ | z4 | %60
 [A,,,A,,] z z2 | z4 | z4 | z4 | z4 | z4 | z4 | .[A,,,A,,]2 z2 | z2!ped! [A,,,A,,]2!ped-up! | %69
!ped! [A,,,A,,]2 z2!ped-up! | z2!ped-up!!ped! [A,,,A,,]2 |!ped! [A,,,A,,]2 z2!ped-up! | %72
!ped! [A,,,A,,]2!ped-up! z2 |!ped! [A,,,A,,]2!ped-up! z2 | z4 | z2!ped-up!!ped! [A,,,A,,]2 | z4 | %77
 z4 | z4 |!ped! D,2 z2!ped-up! | D,,4- | D,,4- | D,,4- | D,,4- | D,,4- | D,,4- | D,,4- | D,,4- z2 | %88
 D,,4- | D,,4- | D,,4 | D,,2 A,, z | z4 | z4 | D4- | D4 | E2 F2- | F2 E2- | EA,B,^C | %99
!ped! [D,A,-D]4!ped-up! | A,2 F,G, | [A,,-A,]4!ped-up!!ped! | [A,,A,]2 F,G, | %103
!ped! [F,,D,A,]2!ped-up! [F,,D,-]2 | E,2 F,2 | G,2 G,2- |!ped! G, A,=B,^C!ped-up! | F,2 G,2- | %108
!ped! x A,B,^C!ped-up! | .[D,F,A,D] .[DF] z2 | z4 |!f! [A,,E,G,] [A,E] z2 | z4 | [D,A,D] [DF] z2 | %114
 z4 |!f! [A,,E,G,] [A,E] z2 | z4 | [D,A,D] [DF] z2 | [F,,^C,^A,] F z2 |!p! [B,,F,D] z [D,A,=C] z | %120
 [G,,D,B,] z [B,,F,A,] z | [E,,B,,G,] z [G,,B,,E,G,] z | [A,,^C,E,] z z2 | [D,A,D] [DF] z2 | z4 | %125
 [A,,E,G,] [A,E] z2 | z4 | [D,A,D] [DF] z2 | z4 | z4 | z4 | [G,,D,B,] [G,D] z2 | z4 | %133
 [G,,D,B,]!ped! [G,D]3-!ped-up! | [G,D]4- | [G,D]4 | [G,D] z [G,D] z | %137
 [G,,D,B,]!ped! [G,D]3-!ped-up! | [G,D]4- | [G,D]4 | [G,D] z [G,D] z | %141
 [G,D] z z!ped! [G,,,G,,]!ped-up! | [G,,,G,,] z!ped-up! z!ped! [G,D] | %143
 [G,D] z!ped-up! z!ped! [G,,,G,,] | [G,,,G,,] z!ped-up! z!ped! [G,D] | [G,D] z z2 | z4 | z4 | z4 | %149
 z!ped-up!!ped! [G,D] [G,D]!ped-up!!ped! [G,,,G,,] | [G,,,G,,] z z2 | %151
 z!ped-up!!ped! [G,D] [G,D]!ped-up!!ped! [G,,,G,,] | [G,,,G,,] z z2 | z4 | z4 | %155
!ped! [G,,,G,,]4-!ped-up! | [G,,,G,,]4- | [G,,,G,,]4- | [G,,,G,,]2 !fermata![G,,,G,,]2 | x4 | x4 | %161
 x4 | x4 | x4 | x4 | x4 | x4 | x4 | [C,,E,]2 z [C,,E,] | [C,,E,]2 z [C,,E,] | %170
 [C,,E,] z .[C,,E,].[C,,E,] | [C,,E,] z z2 | .[A,,,A,,].A,,/.A,,/ .[C,,C,].C,/.C,/ | [D,,D,] z z2 | %174
 .[D,,D,].D,/.D,/ .[D,,D,].E,/.F,/ | .[G,,G,].G,/.G,/ .[G,,G,] z | .[C,,C,] z .[D,,D,] z | %177
 !>![G,,D,G,]4 |!p! C,4- | C,4- | C,4- | C,4 | A,,2 C,2 | D,4- | D,4 | G,4 | C,2 D,2 | G,4 | D,4- | %189
 D,2- D,E,/F,/ | [G,,G,]2 [F,,F,]2 | [E,,E,]A,,[D,,D,] z | B,2 C2 | B,2 A,2 | G,2 F,2 | E,A,D, z | %196
 E,,[A,,,A,,]D,, z | z2 [A,,G,][D,F,] |[I:staff -1] G/[I:staff +1]E/.D G/E/.D | %199
!ped! [C,E,G,C] [C,,C,]2!ped-up! [C,E,G,C] |!ped! [C,E,G,C] [C,,C,]2!ped-up! [C,E,G,C] | %201
!ped! [C,E,G,C][C,,C,]!ped-up!!ped! [C,E,G,C]!ped-up![C,,C,] | %202
!ped! [C,E,G,C][C,,C,]!f!!ped-up!!ped! C,/E,/G,/C/-!ped-up! | %203
 [C,C] [A,,,A,,]2!f!!ped! [C,,C,]-!ped-up! | [C,,C,][D,,D,]!ped-up!!ped! D,/F,/A,/D/- | %205
 [D,D] [D,,D,]2!ped! [D,,D,]-!ped-up! | [D,,D,] [G,,G,]2 [E,,E,] | %207
!ped! [C,,C,]!ped-up! [C,C]2 [D,D] |!ped! [B,,B,]/!mf!D,/E,/F,/ G,/A,/!ped-up!B,/G,/ | %209
!ped! E,/G,/F,/A,/!ped-up!!ped! G,/F,/!ped-up!E,/D,/ | %210
!ped! C,/B,,/C,/D,/!ped-up!!ped! B,,/G,,/A,,/!ped-up!B,,/ | %211
!ped! C,/A,,/B,,/C,/ D,!ped-up!!ped![D,,D,]!ped-up! | z4 | z4 | z4 | z4 | %216
!mf!!ped! [G,,G,]/_B,,/C,/D,/ _E,/=F,/G,/E,/!ped-up! | %217
!ped! =F,/_B,,/C,/D,/!ped-up!!ped! _E,/D,/C,/B,,/ | %218
!ped! _A,,/G,,/A,,/_B,,/!ped-up!!ped! G,,/_E,,/=F,,/!ped-up!G,,/ | %219
!ped! _A,,/=F,,/G,,/A,,/!ped-up! _B,,!ped![_A,_B,]!ped-up! | z4 | z4 | z4 | z2 z [_B,,,_B,,] | %224
!f!!ped! [_E,,_E,]!p! E,G,_B,!ped-up! | _E z z2 | [G,-_E]4 | _E_B,G,_E, | %228
!f!!ped! D,!p!=F,_B,D!ped-up! | B,4- | [D,F,B,]4- | _A,=F,D,_B, | _E z .[EG].[EG] | .[_EG] z x z | %234
 .C.C._E.E | [=F,=F] x x z |!ped! [_B,,,_B,,]!p! B,,_D,=F,!ped-up! | _B,4- | [D,B,]4- | %239
 _B,=F,_D,_B,, |!f!!ped! A,,!p!C,=F,A,!ped-up! | F,4- | [A,,C,F,]4- | z C,A,,=F, | %244
 [_B,,_B,] z [_D=F][DF] | _D x [_D=F][I:staff -1][=F_B] |[I:staff +1] [_B,,G,] z [_D,_B,]B, | %247
 [_B,C] .[D=F]/.[EG]/ C z |!ped! C,!p!=F,_A,C!ped-up! | [A,=F]4- | [A,-F]4 | =F4 | %252
!ped! z!p! G,CE!ped-up! | G z z2 | C,4- | C,4 | [_E,,^F,] z z2 | z4 | z4 | z4 | %260
 .[C,,C,] z!mf! .^F,.A, | .^F, z .A,.C | ._E z z [C,_E,C] | [C,_E,C] z z [C,E,] | %264
!mf! .[_B,,,_B,,] z .D,.G, | .D, z .G,._B, | .D z z [G,_B,D] | [G,_B,D] z z [G,,_B,,] | %268
!mf! .[=F,,,=F,,] z .=B,,.D, | .[=F,,=F,] z .D.=F | z2 z [G,D=F] | [G,D=F] z z G,, | %272
!mf! .C, z .G,.C | .G, z .C._E | .G z z [C,_E,C] | [C,_E,C] z z [C,E,] | [A,,,A,,] z!mf! .^C,.=E, | %277
 .G, z .^C.=E | .G z z [G,A,E] | [G,A,E] z z [G,A,] | [D,,D,] z z2 | z4 | z4 | z2 z [G,,,G,,] | %284
 [D,,D,] z z2 | z4 | z4 | z2 z [G,,,G,,] | [D,,D,] z z2 | z4 | z4 | z4 | z4 | z4 | z4 | %295
 [D,,D,]2 z2 | z2 [D,,D,]2 | [D,,D,]2 z2 | z2 [D,,D,]2 | [D,,D,]2 z2 | [D,,D,]2 z2 | [D,,D,]2 z2 | %302
 z4 | z2 [D,,D,]2 | z4 | z4 | z4 | G,,4- | G,,4- | G,,4- | G,,4 | G,,4- | G,,4- | G,,4- | G,,4- | %315
 G,,4- x2 | G,,4- | G,,4- | G,,4 | G,,2 D,, z | z4 | z4 |[K:treble] G4- | G4 | A2 B2 | B2 A2 | %326
 ADEF |[K:bass] G4 | B, A,2 G, | [D,D]4 | [A,D]2 B,C | [G,D]4- | D2 CB, | [G,C-]4 | C2 E,F, | %335
 [B,D]2 C2- | A,D,E,F, | [G,,D,B,] z z2 | z4 | [D,A,C] z z2 | z4 | [G,,D,B,] z z2 | z4 | %343
 [D,A,C] z z2 | z4 | [G,,D,B,] z z2 | [B,,F,A,] z z2 |!p! [E,B,G] z [G,D=F] z | %348
 [C,G,E] z [E,B,D] z | [A,,E,C] z [C,E,E] z | [D,^F,D] z z2 |!ped! [G,,D,B,] z z2!ped-up! | z4 | %353
!ped! [D,A,C] z z2!ped-up! | z4 |!ped! [G,,D,B,] z z2!ped-up! | z4 |!ped! [G,,D,_B,] z z2!ped-up! | %358
 z4 |!ped! [_E,,_B,,G,] [_EG] z2!ped-up! | z4 | [_E,,_B,,_E,G,]!ped! [_EG]3-!ped-up! | [EG]4- | %363
 [EG]4 | [_EG] z [EG] z | [_E,,_B,,_E,G,]!ped! [_EG]3-!ped-up! | [EG]4- | [EG]4 | [_EG] z [EG] z | %369
 [_EG]2 z [_E,,_E,] | [_E,,_E,] z z [_EG] | [_EG]2 z [_E,,_E,] | [_E,,_E,] z z z | z4 | z4 | z4 | %376
 z2 z!p! _E,/E,/ |!ped! _E,4-!ped-up! | E,4 |!ped! C,2 _E,2!ped-up! |!ped! =F,4-!ped-up! | F,4- | %382
 F,4- | F,2 =F,2- | F,4- | F,2 =F,2- | F,4 | =F,4- | F,4 | =F,4- | F,4 | =F,4- | F,4- | F,4- | %394
 F,4 | G,4- | G,4- | G,4- |!ped! G,4!ped-up! | [_E,_E] z [_A,,_A,] z |!ped! z2 z [C,_E,C]!ped-up! | %401
 [C,_E,C]2 z [C,E,C] | [C,_E,C] z [C,E,A,][C,A,C] | [_E,C_E] z [_A,,_A,] z | %404
!ped! z2 z [C,_E,C]!ped-up! | [C,_E,C]2 z [C,E,C] | [C,_E,C] z [C,E,A,][C,A,C] | %407
!ped! z2 [C,A,C][C,A,C]!ped-up! |!ped! C,2 [C,A,C][C,A,C]!ped-up! | %409
!ped! C,2 [C,A,C][C,A,C]!ped-up! |!ped! [G,,D,=F,B,] z z2!ped-up! | z4 | z4 | z4 | z4 | z4 | z4 | %417
 z4 | z4 | z4 | z4 | z4 | z4 | z4 | z4 | z4 | z4 | z4 | [C,G,C] z z2 | [C,G,C] z z2 | %430
 [C,G,C] z [C,C][C,C] | [C,C] z z2 | [A,,A,] z [C,C] z | D, z z2 | D, z [D,A,] z | %435
 [G,B,] z [E,G,] z | [C,E,] z [D,A,] z | %437
!ped! !arpeggio![G,,D,G,]!ped-up! z!ped-up! z!ped! [C,E,G,C] | %438
 [C,E,G,C] !>![C,,C,]2!ped-up!!ped! [C,E,G,C] | [C,E,G,C] !>![C,,C,]2!ped-up!!ped! [C,E,G,C] | %440
 [C,E,G,C]!>![C,,C,] [C,E,G,C]!>![C,,C,] | [C,E,G,C] !>![C,,C,]2!ped-up!!ped! [C,E,G,C]- | %442
 [C,E,G,C] [C,G,A,C]2!ped-up!!ped! [D,F,A,D]- | [D,F,A,D] [D,,D,]2 [F,A,]/[E,G,]/ | %444
 [F,A,] [D,,D,]2 [G,,G,] | [G,,G,] [E,,E,]2 [C,,C,] | [C,,C,] [D,,D,]2 [D,D] | %447
!ped! !>![B,,B,]/!ff!D,/E,/F,/ G,/A,/!ped-up!B,/G,/ | E,/G,/F,/A,/ G,/F,/E,/D,/ | %449
 C,/B,,/C,/D,/ B,,/G,,/A,,/B,,/ | C,/A,,/B,,/C,/!ped! D,!ped-up![D,,D,] | z4 | z4 | z4 | %454
 z2 z [D,A,] |!ped! [G,,G,] G,,/G,/ G,, z!ped-up! | z4 | z4 | z4 | %459
!ped! [G,,G,] G,,/G,/ G,,!ped-up! z | z4 | z4 | A,, z D,, z | z2 A,,D,, | z2 A,,^C,, | %465
 z2 ^A,,^C,, | z4 | z4 | z4 | z4 | z4 |!pp!!ped! [F,,,F,,]4-!ped-up! | [F,,,F,,]4- | [F,,,F,,]4- | %474
 [F,,,F,,]4 |!ped! [F,,F,] z z2!ped-up! | z4 |!ped! [G,,G,] z z2!ped-up! | z4 | %479
!ped! [C,,C,]4-!ped-up! | [C,,C,]4- | [C,,C,]4- | [C,,C,]4 |!ped! [C,C] z z2!ped-up! | E2 C2 | %485
!ped! A,4!ped-up! | D4 | [G,,G,]!ped! z z2!ped-up! | z2!p! CB, | B,2 A,2- | A,D,E,F, | B,4 | %492
{A,G,F,} G,A,B,C | A,4- | A,B,CD |!ped! [B,D]/G/[B,D]/G/!ped-up! [B,D]/G/ z | z4 | %497
 C/D/C/D/ C/D/C/D/ | C/D/C/D/ C/D/C/D/ |!ped! [D,,D,]4!ped-up! | %500
!ped! [D,,D,]2 [C,,C,][B,,,B,,]!ped-up! |!ped! [B,,,B,,]2 [A,,,A,,]2-!ped-up! | %502
 [A,,,A,,]!ped![D,,,D,,][E,,,E,,][F,,,F,,]!ped-up! | %503
 [G,,,G,,]!ped![A,,,A,,]/[I:staff -1][A,A]/[I:staff +1][B,,,B,,]/[I:staff -1][B,B]/[I:staff +1][C,,C,]/[I:staff -1][Cc]/!ped-up! | %504
!f!!ped![I:staff +1] [A,,,A,,]/[I:staff -1][A,A]/[I:staff +1][B,,,B,,]/[I:staff -1][B,B]/[I:staff +1][C,,C,]/[I:staff -1][Cc]/!ped-up![I:staff +1][D,,D,]/[I:staff -1][Dd]/ | %505
!f!!ped![I:staff +1] [B,,,B,,]/[I:staff -1][B,B]/[I:staff +1][C,,C,]/[I:staff -1][Cc]/[I:staff +1][D,,D,]/[I:staff -1][Dd]/!ped-up![I:staff +1][E,,E,]/[I:staff -1][Ee]/ | %506
!f!!ped![I:staff +1] [C,,C,]/[I:staff -1][Cc]/[I:staff +1][D,,D,]/[I:staff -1][Dd]/[I:staff +1][E,,E,]/[I:staff -1][Ee]/!ped-up![I:staff +1][F,,F,]/[I:staff -1][Ff]/ | %507
!f!!ped![I:staff +1] [G,,G,]/x/[A,,G,A,]/x/[_B,,G,_B,]/x/!ped-up![=B,,G,=B,]/ x/ | %508
!ped! [C,G,C]/x/[^C,G,^C]/x/[D,G,D]/x/[^D,G,^D]/ x/!ped-up! | [E,G,E] z [F,G,F] z | %510
 [G,G] z [^C,,G,,^C,] z |!ped! !fermata![D,,D,]4!ped-up! ||[M:4/4] z8 | z8 | z8 | z8 | z8 | z8 | %518
 z8 | z8 | z8 | z8 ||[M:2/4] z4 | z4 | z4 | z4 ||[M:4/4] z8 | z8 ||[M:2/4] z4 | z4 | z4 | z4 | z4 | %533
 z4 | z4 | z4 | z4 | z4 | z4 | z4 ||[M:4/4] z8 | z8 | z8 | z8 | z8 | z8 | z8 || %547
[M:2/4] [D,,D,] z z2 | z4 | z4 | z4 | z4 | z4 | z4 | z4 | B,4 |!ped! [B,D]4!ped-up! | %557
 [B,,,B,,]2 z2 |!ped! [C,,C,]2!ped-up! z2 |!ped! [D,,D,] z [G,B,] z!ped-up! | z2 [D,A,C] z | %561
!ped! [B,,,B,,]4-!ped-up! | [^G,D]4- | [G,D]4 | [C,,C,] z [A,C] z | [D,,D,] z G, z | %566
 [D,,D,] z [A,C] z |!pp!!ped! [B,,D,]2 [D,G,][G,B,]!ped-up! |!ped! G,,2 !arpeggio![G,B,]2!ped-up! | %569
!ped! [C,E,]2 [E,G,][G,C]!ped-up! |!ped! G,,2 !arpeggio![G,C]2!ped-up! | %571
!ped! G,,2 !arpeggio![G,CE]2!ped-up! |!ped! F,4!ped-up! |!ped! F,2 [D,A,C]2!ped-up! | %574
!ped! G,2 [B,,G,]2!ped-up! |!ped! [C,A,]2 D,2!ped-up! | B,,4 |!ped! z2 [B,,D,]2!ped-up! | %578
 [G,,D,G,][G,B,] [B,D]2 |!ped! z2 [C,E,]2!ped-up! | [G,,E,G,][G,C] [CE]2 |!ped! z2 [A,C]2!ped-up! | %582
 [G,,G,A,]2 [F,A,]2 | z2 [F,A,]2 |!ped! [D,B,]2 [G,B,]2!ped-up! |!ped! z2 [C,A,]2!ped-up! | %586
!ped! D,2 B,,2!ped-up! |!ped! z2 [C,A,]2!ped-up! |!ped! D,2 B,,2!ped-up! | %589
!ped! z2 [C,-A,]2!ped-up! | D,2 A,2 | D,2 A,2 | D,2 A,2 | [B,,G,]2 z2 | z4 | z4 | z4 | z4 | z4 | %599
 [A,,A,]2 z2 | [D,,D,]2 z2 | z4 | A,D, A,,[D,,D,] | z4 | z4 | z4 | z4 |!ped! ADAD!ped-up! | ADAD | %609
!ped! [A,,D,]D,,[A,,D,]D,,!ped-up! | [A,,D,]D,,[A,,D,] [D,,D,] |!ped! [G,,,G,,]2 z2!ped-up! | %612
!ped! !arpeggio![G,,D,=F,B,]2 z2!ped-up! |!ped! !arpeggio![G,,D,=F,B,]2 z2!ped-up! | %614
!ped! !arpeggio![G,,D,=F,B,]2 z2!ped-up! |!ped! (3[C,,C,]B,,C,!ped-up!!ped! (3E,G,E,!ped-up! | %616
!ped! (3C,B,,C,!ped-up!!ped! (3E,G,E,!ped-up! |!ped! (3C,E,G,!ped-up!!ped! (3CG,E,!ped-up! | %618
!ped! (3C,D,E,!ped-up!!ped! (3D,C,B,,!ped-up! |!ped! (3A,,^G,,A,,!ped-up!!ped! (3C,D,C,!ped-up! | %620
!ped! (3D,^C,D,!ped-up!!ped! (3F,A,F,!ped-up! |!ped! (3D,F,E,!ped-up!!ped! (3D,E,F,!ped-up! | %622
!ped! (3G,G,,F,,!ped-up!!ped! (3G,,A,,B,,!ped-up! |!ped! (3=C,B,,C,!ped-up!!ped! (3D,C,D,!ped-up! | %624
 [G,,G,] z [G,D] z | [CE] z [DF] z | G, z z2 | [C,,C,]2 z2 | [D,,D,]2 z2 | [G,,G,]2 z2 | %630
 [D,,D,]2 z2 | [G,,,G,,]2 z2 | [D,,D,]2 z2 | [G,,G,]2 z2 | [D,,D,]2 z2 | [G,,,G,,]2 z2 | %636
 [D,,D,]2 z2 | B,4 | D4 | G4 |!ped! D4!ped-up! |!ped! [G,,D,B,]2 z [G,B,]/G/!ped-up! | %642
!ped! [G,B,]2 z!ped-up! G,,/G,/ |!ped! G,,2 z!ped-up! [G,B,]/G/ |!ped! [G,B,]2 z!ped-up! G,,/G,/ | %645
 G,, z z2 | [D,,D,] z z2 | [G,,,G,,] z z2 |] %648
V:7
 x4 | x4 | x4 | x4 | x4 | x4 | x4 | x4 | x4 | x4 | x4 | x4 | x4 | x4 | x4 | x4 | x4 | x4 | x4 | %19
 x4 | D4- | D4- | D4 | x4 | x4 | x4 | x4 | x4 | G,2 F, x | x4 | [ce]4 | x4 | x4 | x4 | x4 | x4 | %36
 x4 | x4 | x4 | x4 | x4 | x4 | x4 | x4 | x4 | x4 | x4 | x4 | x4 | x4 | x4 | x4 | x4 | x4 | x4 | %55
 x4 | [^ce][ce][de][de] | x4 | [^ce][ce][de][de] | x4 | x4 | x4 | x4 | x4 | x4 | x4 | x4 | x4 | %68
 x4 | x4 | x4 | x4 | x4 | x4 | x4 | x4 | x4 | x4 | x4 | x4 | x4 | x4 | x4 | x4 | x4 | x4 | x4 | %87
 x6 | x4 | x4 | x4 | x4 | x4 | x4 | x4 | x4 | x4 | x4 | G4 | F4 |{ED^C} DEFG | x4 | c2 de | d4- | %104
 d4 | d4 | [G^c]2 z A | F2 G2 | E2 z A | x4 | x4 | x4 | x4 | x4 | x4 | x4 | x4 | x4 | x4 | x4 | %120
 x4 | x4 | x4 | x4 | x4 | x4 | x4 | x4 | x4 | x4 | x4 | x4 | x4 | x4 | x4 | x4 | x4 | x4 | x4 | %139
 x4 | x4 | x4 | x4 | x4 | x4 | x4 | x4 | x4 | x4 | x4 | x4 | x4 | x4 | x4 | x4 | x4 | x4 | x4 | %158
 x4 | x4 | x4 | x4 | x4 | x4 | x4 | x4 | x4 | x4 | x4 | x4 | x4 | x4 | x4 | x4 | x4 | x4 | x4 | %177
 x4 | x4 | x4 | x4 | x4 | x4 | x4 | x4 | x4 | x4 | x4 | D4- | D4- | D4 | x4 | x4 | x4 | x4 | x4 | %196
 G,2 F, x | x4 | [ce]4 | x4 | x4 | x4 | x4 | x4 | x4 | x4 | x4 | x4 | x4 | x4 | x4 | x4 | x4 | x4 | %214
 x4 | x4 | x4 | x4 | x4 | x4 | x4 | x4 | x4 | x4 | G,2 x2 | x4 | x4 | x4 | x4 | x4 | x4 | x4 | %232
 G x x2 | x2[I:staff +1] [G_B][I:staff -1][_B_e] | x4 | x2 =F x | x4 | x4 | x4 | x4 | x4 | x4 | %242
 x4 | x4 | x4 | x4 | ._B z z2 | x4 | =F4 | z _A3- | A4- | x4 | G4 | z ceg | _bgec | x G3 | x4 | %257
 x4 | x4 | x4 | x4 | x4 | x4 | x4 | x4 | x4 | x4 | x4 | x4 | x4 | x4 | x4 | x4 | x4 | x4 | x4 | %276
 x4 | x4 | x4 | x4 | x4 | x4 | x4 | x4 | x4 | x4 | x4 | x4 | x4 | x4 | x4 | x4 | x4 | x4 | x4 | %295
 x4 | x4 | x4 | x4 | x4 | x4 | x4 | x4 | x4 | x4 | x4 | x4 | x4 | x4 | x4 | x4 | x4 | x4 | x4 | %314
 x4 | x6 | x4 | x4 | x4 | x4 | x4 | x4 | x4 | x4 | x4 | c4- | c2 BA | B z z2 | %328
{!fermata!A!fermata!G!fermata!F} !fermata!GABc | x4 | [Af]2 [Bg][ca] | d4- | [dd']2 [cc'][Bb] | %333
 c4- | c4 | [GB]2 [Ac-]2 | F2 GA | x [GB] x2 | x4 | x [DA] x2 | x4 | x4 | x4 | x [DA] x2 | x4 | %345
 x [B,G] x2 | x [B,FA] x2 | x4 | x4 | x4 | x4 | x [GB] x2 | x4 | x [DA] x2 | x4 | x [B,G] x2 | x4 | %357
 x [_B,G] x2 | x4 | x4 | x4 | x4 | x4 | x4 | x4 | x4 | x4 | x4 | x4 | x4 | x4 | x4 | x4 | x4 | %374
 x3[K:bass] x | _E,4- | E,3 z | x4 | x4 | x4 | x4 | A,4 | _B,2 z2 | x4 | x4 | x4 | x4 | x4 | x4 | %389
 x4 | x4 |[K:treble] x4 | x4 | x4 | x4 | x4 | x4 | x4 | x4 | x4 | x4 | x4 | x4 | x4 | x4 | x4 | %406
 x4 | x4 | x4 | x4 | x4 | x4 | x4 | x4 | x4 | x4 | x4 | x4 | x4 | x4 | x4 | x4 | x4 | x4 | x4 | %425
 x4 | x4 | x4 | E z z2 | E z z2 | E z [EG][Gc] | !arpeggio![ce] z z2 |{/c-} c z{/A-} A z | %433
{/^F-} F z z2 |{/F-} F z{/F-} F z |{/G-} G z{/B,-} B, z |{/A,} G2{/D} F2 | G x x x | x4 | x4 | x4 | %441
 x4 | x4 | x4 | x4 | x4 | x4 | x4 | x4 | x4 | x4 | x4 | x4 | x4 | x4 | x4 | x4 | x4 | x4 | B,4 | %460
 x4 | x4 |[K:bass] x4 | x4 | x4 | x4 | x4 | x4 | x4 | x4 | x4 | x4 | x4 | x4 | x4 |[K:treble] x4 | %476
 x4 | x4 | x4 | x4 | x4 | x4 | x4 | G4 | x4 | D z z2 | x4 | D4 | x4 | x4 | x4 | DDDD | DDDD | %493
 [CD][CD][CD][CD] | [CD][CD][CD][CD] | x4 |{AGF} GA[DB] z | x4 | x4 | x4 | x4 | x4 | x4 | x4 | x4 | %505
 x4 | x4 | x4 | x4 | x4 | x4 | x4 ||[M:4/4] x8 | x8 | x8 | x8 | x8 | x8 | x8 | x8 | x8 | x8 || %522
[M:2/4] x4 | x4 | x4 | x4 ||[M:4/4] x8 | x8 ||[M:2/4] x4 | x4 | x4 | x4 | x4 | x4 | x4 | x4 | x4 | %537
 x4 | x4 | x4 ||[M:4/4] x8 | x8 | x8 | x8 | x8 | x8 | x8 ||[M:2/4] x4 | x4 | x4 | x4 | x4 | x4 | %553
 x4 | x4 | x4 | x4 | B,2 z2 | x4 | x4 | D z z2 | x4 | x4 | x4 | x4 | x4 | x2 D2- | x4 | D2 D2 | %569
 x4 | E2 E2 | x4 | z2 !arpeggio![CF]2 | x4 | x4 | x4 | x4 | [B,DG]4 | x4 | [CEG]4 | x4 | x2 F2- | %582
 F2 x2 | [CF]4 | G4 | [CDA]4 | [B,G]4 | [CDA]4 | [B,G]4 | [CDA]4 | C4- | C4- | C4 | [B,DB]2 x2 | %594
 x4 | x4 | x4 | x4 | x4 | x4 | x4 | x4 | x4 | x4 | x4 | adad | adad | x4 | x4 | x4 | x4 | x4 | x4 | %613
 x4 | x4 | x4 | x4 | x4 | x4 | x4 | x4 | x4 | x4 | x4 | x4 | x4 | x4 | x4 | x4 | x4 | x4 | x4 | %632
 x4 | D2 z2 | F2 z2 | D2 z2 | F2 z2 | x4 | x4 | x4 | x4 | x4 | x4 | x4 | x4 | x4 | x4 | x4 |] %648
V:8
 x4 | x4 | x4 | x4 | x4 | x4 | x4 | x4 | x4 | x4 | x4 | x4 | x4 | x4 | x4 | x4 | x4 | x4 | x4 | %19
 x4 | [B,,B,]2 [C,C]2 | [B,,B,]2 [A,,A,]2 | x4 | x4 | x4 | x4 | x4 | x4 | x4 | x4 | x4 | x4 | x4 | %33
 x4 | x2 C,2- | x4 | x2 D,2- | x4 | x4 | x4 | x4 | x4 | x4 | x4 | x4 | x4 | x4 | x4 | x4 | x4 | %50
 x4 | x4 | x4 | x4 | x4 | x4 | x4 | x4 | x4 | x4 | x4 | x4 | x4 | x4 | x4 | x4 | x4 | x4 | x4 | %69
 x4 | x4 | x4 | x4 | x4 | x4 | x4 | x4 | x4 | x4 | D,,4- | x4 | x4 | x4 | x4 | x4 | x4 | x4 | x6 | %88
 x4 | x4 | x4 | x4 | x4 | x4 | x4 | x4 | x4 | x4 | A,4 | x4 | ^C,2 B,,2 | F,2 E,2- | E,2 G,,2 | %103
 x4 | G,,2 A,,2 | B,,3 _B,, | A,, [G,A,]3 | [A,,A,]4- | [A,,G,A,] [G,A,]3 | x4 | x4 | x4 | x4 | %113
 x4 | x4 | x4 | x4 | x4 | x4 | x4 | x4 | x4 | x4 | x4 | x4 | x4 | x4 | x4 | x4 | x4 | x4 | x4 | %132
 x4 | x4 | x4 | x4 | x4 | x4 | x4 | x4 | x4 | x4 | x4 | x4 | x4 | x4 | x4 | x4 | x4 | x4 | x4 | %151
 x4 | x4 | x4 | x4 | x4 | x4 | x4 | x4 | x4 | x4 | x4 | x4 | x4 | x4 | x4 | x4 | x4 | x4 | x4 | %170
 x4 | x4 | x4 | x4 | x4 | x4 | x4 | x4 | x4 | x4 | x4 | x4 | x4 | x4 | x4 | x4 | x4 | x4 | %188
 [B,,B,]2 [C,C]2 | [B,,B,]2 [A,,A,]2 | x4 | x4 | x4 | x4 | x4 | x4 | x4 | x4 | x4 | x4 | x4 | x4 | %202
 x2 C,2- | x4 | x2 D,2- | x4 | x4 | x4 | x4 | x4 | x4 | x4 | x4 | x4 | x4 | x4 | x4 | x4 | x4 | %219
 x4 | x4 | x4 | x4 | x4 | x _E,3- | [E,G,]4- | E,4- | [E,G,]4 | [D,,D,]4 | [D,F,]4- | x4 | %231
 [D,F,B,]4 | [_E,_B,] x x2 | x4 | C, z _E, z | =F, x x x | x _B,,3- | [B,,D,-]4 | _B,,4- | %239
 [B,,D,B,]4 | A,,,4 | [A,,C,]4- | x4 | [A,,C,F,]4 | x4 | _B, z x z | G,, x _B,, x | C, x x2 | %248
 =F,,4- | F,,4- | F,,4- | F,,4 | [E,,C,E,]4- | [E,,-C,E,]4 | E,,4- | E,,4 | x4 | x4 | x4 | x4 | %260
 x4 | .[C,C] z z2 | x4 | x4 | x4 | .[_B,,_B,] x x2 | x4 | x4 | x4 | x4 | x4 | x4 | %272
 .[_E,,_E,] x x2 | .[_E,_E] x x2 | x4 | x4 | x4 | .[A,,A,] x x2 | x4 | x4 | x4 | x4 | x4 | x4 | %284
 x4 | x4 | x4 | x4 | x4 | x4 | x4 | x4 | x4 | x4 | x4 | x4 | x4 | x4 | x4 | x4 | x4 | x4 | x4 | %303
 x4 | x4 | x4 | x4 | G,,,2 z2 | x4 | x4 | x4 | x4 | x4 | x4 | x4 | x6 | x4 | x4 | x4 | x4 | x4 | %321
 x4 |[K:treble] x4 | x4 | x4 | D4 | D2 C2 |[K:bass] [G,B,-]4 | F,2 E,2 | D,4- | D,2 C,2 | %331
 [B,,D,]4 | [C,E,]2 [D,=F,]2 | E,3 _E, | D,4- | D,4- | [D,C] D,3 | x4 | x4 | x4 | x4 | x4 | x4 | %343
 x4 | x4 | x4 | x4 | x4 | x4 | x4 | x4 | x4 | x4 | x4 | x4 | x4 | x4 | x4 | x4 | x4 | x4 | x4 | %362
 x4 | x4 | x4 | x4 | x4 | x4 | x4 | x4 | x4 | x4 | x4 | x4 | x4 | x4 | x4 | x4 | x4 | x4 | x4 | %381
 x4 | z2 D,2 | _E,4 | D,4 | _E,4 | D,4 | x4 | _E,4 | x4 | _E,4 | =F,, z z2 | _B,, z z2 | %393
 =F,, z z2 | _B,, z z2 | G,, z z2 | C, z z2 | G,, z z2 | C, z z2 | x4 | !>![^F,,,^F,,]4- | %401
 [F,,,F,,]4- | [F,,,F,,]4 | x4 | !>![^F,,,^F,,]4- | [F,,,F,,]4- | [F,,,F,,]4 | !>![=F,,=F,]4 | %408
 !>![=E,,=E,]4 | !>![D,,D,]4 | x4 | x4 | x4 | x4 | x4 | x4 | x4 | x4 | x4 | x4 | x4 | x4 | x4 | %423
 x4 | x4 | x4 | x4 | x4 | x4 | x4 | x4 | x4 | x4 | x4 | x4 | x4 | x4 | x4 | x4 | x4 | x4 | x4 | %442
 x4 | x2 x D,- | D, x x2 | x4 | x4 | x4 | x4 | x4 | x4 | x4 | x4 | x4 | x4 | x4 | x4 | x4 | x4 | %459
 x4 | x4 | x4 | x4 | x4 | x4 | x4 | x4 | x4 | x4 | x4 | x4 | x4 | x4 | x4 | x4 | x4 | x4 | x4 | %478
 x4 | x4 | x4 | x4 | x4 | x4 | x4 | D, z z2 | x4 | x4 | x4 | D, z z2 | x4 | G,4 | x4 | x4 | x4 | %495
 G, z z2 | x4 | D, z z2 | z D,E,F, | x4 | x4 | x4 | x4 | x4 | x4 | x4 | x4 | x4 | x4 | x4 | x4 | %511
 x2 x !fermata!x ||[M:4/4] x8 | x8 | x8 | x8 | x8 | x8 | x8 | x8 | x8 | x8 ||[M:2/4] x4 | x4 | x4 | %525
 x4 ||[M:4/4] x8 | x8 ||[M:2/4] x4 | x4 | x4 | x4 | x4 | x4 | x4 | x4 | x4 | x4 | x4 | x4 || %540
[M:4/4] x8 | x8 | x8 | x8 | x8 | x8 | x8 ||[M:2/4] x4 | x4 | x4 | x4 | x4 | x4 | x4 | x4 | x4 | %556
 x4 | x4 | x4 | x4 | [D,,D,] z z2 | x4 | [B,,,B,,]4- | [B,,,B,,]4 | x4 | x4 | x x D,2- | G,,4 | %568
 x4 | G,,2 z2 | x4 | x4 | G,,2 A,2 | G,,2 z2 | G,,2 z2 | G,,4 | G,,2 z2 | [G,,,G,,]4 | x4 | %579
 [G,,,G,,]4 | x4 | [G,,,G,,]4 | x4 | x4 | G,,4 | [G,,,G,,]4 | [G,,G,]4 | [G,,,G,,]4 | [G,,G,]4 | %589
 [G,,,G,,]4 | [G,,C,-]4 | C,4- | [G,,-C,]4 | G,,2 x2 | x4 | x4 | x4 | x4 | x4 | x4 | x4 | x4 | x4 | %603
 x4 | x4 | x4 | x4 | x4 | x4 | x4 | x4 | x4 | x4 | x4 | x4 | x4 | x4 | x4 | x4 | x4 | x4 | x4 | %622
 x4 | x4 | x4 | x4 | x4 | x4 | x4 | x4 | x4 | x4 | x4 | x4 | x4 | x4 | x4 | [G,,D,] z z2 | %638
 [D,F,] z z2 | [G,D] z z2 | [D,A,] z z2 | x4 | x4 | x4 | x4 | x4 | x4 | x4 |] %648
V:9
 x4 | x4 | x4 | x4 | x4 | x4 | x4 | x4 | x4 | x4 | x4 | x4 | x4 | x4 | x4 | x4 | x4 | x4 | x4 | %19
 x4 | x4 | x4 | x4 | x4 | x4 | x4 | x4 | x4 | x4 | x4 | x4 | x4 | x4 | x4 | x4 | x4 | x4 | x4 | %38
 x4 | x4 | x4 | x4 | x4 | x4 | x4 | x4 | x4 | x4 | x4 | x4 | x4 | x4 | x4 | x4 | x4 | x4 | x4 | %57
 x4 | x4 | x4 | x4 | x4 | x4 | x4 | x4 | x4 | x4 | x4 | x4 | x4 | x4 | x4 | x4 | x4 | x4 | x4 | %76
 x4 | x4 | x4 | x4 | x4 | x4 | x4 | x4 | x4 | x4 | x4 | x6 | x4 | x4 | x4 | x4 | x4 | x4 | x4 | %95
 x4 | x4 | x4 | x4 | x4 | x2 D2 | x4 | x4 | x4 | x2 GF | x4 | x4 | A z z2 | x4 | x4 | x4 | x4 | %112
 x4 | x4 | x4 | x4 | x4 | x4 | x4 | x4 | x4 | x4 | x4 | x4 | x4 | x4 | x4 | x4 | x4 | x4 | x4 | %131
 x4 | x4 | x4 | x4 | x4 | x4 | x4 | x4 | x4 | x4 | x4 | x4 | x4 | x4 | x4 | x4 | x4 | x4 | x4 | %150
 x4 | x4 | x4 | x4 | x4 | x4 | x4 | x4 | x4 | x4 | x4 | x4 | x4 | x4 | x4 | x4 | x4 | x4 | x4 | %169
 x4 | x4 | x4 | x4 | x4 | x4 | x4 | x4 | x4 | x4 | x4 | x4 | x4 | x4 | x4 | x4 | x4 | x4 | x4 | %188
 x4 | x4 | x4 | x4 | x4 | x4 | x4 | x4 | x4 | x4 | x4 | x4 | x4 | x4 | x4 | x4 | x4 | x4 | x4 | %207
 x4 | x4 | x4 | x4 | x4 | x4 | x4 | x4 | x4 | x4 | x4 | x4 | x4 | x4 | x4 | x4 | x4 | x4 | x4 | %226
 x4 | x4 | x4 | x4 | x4 | x4 | x4 | x4 | x4 | x4 | x4 | x4 | x4 | x4 | x4 | x4 | x4 | x4 | x4 | %245
 x4 | x4 | x4 | x4 | x4 | x =f3- | x4 | x4 | x4 | x4 | x4 | x4 | x4 | x4 | x4 | x4 | x4 | x4 | x4 | %264
 x4 | x4 | x4 | x4 | x4 | x4 | x4 | x4 | x4 | x4 | x4 | x4 | x4 | x4 | x4 | x4 | x4 | x4 | x4 | %283
 x4 | x4 | x4 | x4 | x4 | x4 | x4 | x4 | x4 | x4 | x4 | x4 | x4 | x4 | x4 | x4 | x4 | x4 | x4 | %302
 x4 | x4 | x4 | x4 | x4 | x4 | x4 | x4 | x4 | x4 | x4 | x4 | x4 | x6 | x4 | x4 | x4 | x4 | x4 | %321
 x4 | x4 | x4 | x4 | x4 | x4 | x4 | x4 | x4 | x4 | d2 d'2- | x4 | x4 | F2 GA | x4 | c4 | x4 | x4 | %339
 x4 | x4 | x4 | x4 | x4 | x4 | x4 | x4 | x4 | x4 | x4 | x4 | x4 | x4 | x4 | x4 | x4 | x4 | x4 | %358
 x4 | x4 | x4 | x4 | x4 | x4 | x4 | x4 | x4 | x4 | x4 | x4 | x4 | x4 | x4 | x4 | x3[K:bass] x | %375
 x4 | x4 | x4 | x4 | x4 | x4 | x4 | x4 | x4 | x4 | x4 | x4 | x4 | x4 | x4 | x4 |[K:treble] x4 | %392
 x4 | x4 | x4 | x4 | x4 | x4 | x4 | x4 | x4 | x4 | x4 | x4 | x4 | x4 | x4 | x4 | x4 | x4 | x4 | %411
 x4 | x4 | x4 | x4 | x4 | x4 | x4 | x4 | x4 | x4 | x4 | x4 | x4 | x4 | x4 | x4 | x4 | x4 | x4 | %430
 x4 | x4 | x4 | x4 | x4 | x4 | x4 | x4 | x4 | x4 | x4 | x4 | x4 | x4 | x4 | x4 | x4 | x4 | x4 | %449
 x4 | x4 | x4 | x4 | x4 | x4 | x4 | x4 | x4 | x4 | x4 | x4 | x4 |[K:bass] x4 | x4 | x4 | x4 | x4 | %467
 x4 | x4 | x4 | x4 | x4 | x4 | x4 | x4 |[K:treble] x4 | x4 | x4 | x4 | x4 | x4 | x4 | x4 | x4 | %484
 x4 | x4 | x4 | x4 | x4 | x4 | x4 | x4 | x4 | x4 | x4 | x4 | x4 | x4 | x4 | x4 | x4 | x4 | x4 | %503
 x4 | x4 | x4 | x4 | x4 | x4 | x4 | x4 | x4 ||[M:4/4] x8 | x8 | x8 | x8 | x8 | x8 | x8 | x8 | x8 | %521
 x8 ||[M:2/4] x4 | x4 | x4 | x4 ||[M:4/4] x8 | x8 ||[M:2/4] x4 | x4 | x4 | x4 | x4 | x4 | x4 | x4 | %536
 x4 | x4 | x4 | x4 ||[M:4/4] x8 | x8 | x8 | x8 | x8 | x8 | x8 ||[M:2/4] x4 | x4 | x4 | x4 | x4 | %552
 x4 | x4 | x4 | x4 | x4 | x4 | x4 | x4 | x4 | x4 | x4 | x4 | x4 | x4 | x4 | x4 | x4 | x4 | x4 | %571
 x4 | x4 | x4 | x4 | x4 | x4 | x4 | x4 | x4 | x4 | x4 | C4- | x4 | x4 | x4 | x4 | x4 | x4 | x4 | %590
 x4 | x4 | x4 | x4 | x4 | x4 | x4 | x4 | x4 | x4 | x4 | x4 | x4 | x4 | x4 | x4 | x4 | x4 | x4 | %609
 x4 | x4 | x4 | x4 | x4 | x4 | x4 | x4 | x4 | x4 | x4 | x4 | x4 | x4 | x4 | x4 | x4 | x4 | x4 | %628
 x4 | x4 | x4 | x4 | x4 | x4 | x4 | x4 | x4 | x4 | x4 | x4 | x4 | x4 | x4 | x4 | x4 | x4 | x4 | %647
 x4 |] %648
V:10
 x4 | x4 | x4 | x4 | x4 | x4 | x4 | x4 | x4 | x4 | x4 | x4 | x4 | x4 | x4 | x4 | x4 | x4 | x4 | %19
 x4 | x4 | x4 | x4 | x4 | x4 | x4 | x4 | x4 | x4 | x4 | x4 | x4 | x4 | x4 | x4 | x4 | x4 | x4 | %38
 x4 | x4 | x4 | x4 | x4 | x4 | x4 | x4 | x4 | x4 | x4 | x4 | x4 | x4 | x4 | x4 | x4 | x4 | x4 | %57
 x4 | x4 | x4 | x4 | x4 | x4 | x4 | x4 | x4 | x4 | x4 | x4 | x4 | x4 | x4 | x4 | x4 | x4 | x4 | %76
 x4 | x4 | x4 | x4 | x4 | x4 | x4 | x4 | x4 | x4 | x4 | x6 | x4 | x4 | x4 | x4 | x4 | x4 | x4 | %95
 x4 | x4 | x4 | x4 | x4 | x4 | x4 | x4 | x4 | D,4 | D,4 | x4 | x4 | x4 | x4 | x4 | x4 | x4 | x4 | %114
 x4 | x4 | x4 | x4 | x4 | x4 | x4 | x4 | x4 | x4 | x4 | x4 | x4 | x4 | x4 | x4 | x4 | x4 | x4 | %133
 x4 | x4 | x4 | x4 | x4 | x4 | x4 | x4 | x4 | x4 | x4 | x4 | x4 | x4 | x4 | x4 | x4 | x4 | x4 | %152
 x4 | x4 | x4 | x4 | x4 | x4 | x4 | x4 | x4 | x4 | x4 | x4 | x4 | x4 | x4 | x4 | x4 | x4 | x4 | %171
 x4 | x4 | x4 | x4 | x4 | x4 | x4 | x4 | x4 | x4 | x4 | x4 | x4 | x4 | x4 | x4 | x4 | x4 | x4 | %190
 x4 | x4 | x4 | x4 | x4 | x4 | x4 | x4 | x4 | x4 | x4 | x4 | x4 | x4 | x4 | x4 | x4 | x4 | x4 | %209
 x4 | x4 | x4 | x4 | x4 | x4 | x4 | x4 | x4 | x4 | x4 | x4 | x4 | x4 | x4 | x2 G,2- | x4 | x4 | %227
 x4 | x2 _B,2- | x4 | x4 | x4 | x4 | x4 | x4 | x4 | x2 _D,2- | x4 | x4 | x4 | x2 =F,2- | x4 | x4 | %243
 x4 | x4 | x4 | x4 | x4 | z2 _A,2- | x4 | x4 | A,C_A,=F, | x4 | x4 | x4 | x4 | x4 | x4 | x4 | x4 | %260
 x4 | x4 | x4 | x4 | x4 | x4 | x4 | x4 | x4 | x4 | x4 | x4 | x4 | x4 | x4 | x4 | x4 | x4 | x4 | %279
 x4 | x4 | x4 | x4 | x4 | x4 | x4 | x4 | x4 | x4 | x4 | x4 | x4 | x4 | x4 | x4 | x4 | x4 | x4 | %298
 x4 | x4 | x4 | x4 | x4 | x4 | x4 | x4 | x4 | x4 | x4 | x4 | x4 | x4 | x4 | x4 | x4 | x6 | x4 | %317
 x4 | x4 | x4 | x4 | x4 |[K:treble] x4 | x4 | x4 | x4 | x4 |[K:bass] x4 | x4 | z2 A,2 | D,4 | x4 | %332
 G,4 | x2 A,2- | A,2 [A,CD]2 | G,3 A,- | x2 [A,CD]2 | x4 | x4 | x4 | x4 | x4 | x4 | x4 | x4 | x4 | %346
 x4 | x4 | x4 | x4 | x4 | x4 | x4 | x4 | x4 | x4 | x4 | x4 | x4 | x4 | x4 | x4 | x4 | x4 | x4 | %365
 x4 | x4 | x4 | x4 | x4 | x4 | x4 | x4 | x4 | x4 | x4 | x4 | x4 | x4 | x4 | x4 | x4 | x4 | x4 | %384
 x4 | x4 | x4 | x4 | x4 | x4 | x4 | x4 | D,4 | x4 | D,4 | x4 | _E,4 | x4 | _E,4 | x4 | x4 | x4 | %402
 x4 | x4 | x4 | x4 | x4 | x4 | x4 | x4 | x4 | x4 | x4 | x4 | x4 | x4 | x4 | x4 | x4 | x4 | x4 | %421
 x4 | x4 | x4 | x4 | x4 | x4 | x4 | x4 | x4 | x4 | x4 | x4 | x4 | x4 | x4 | x4 | x4 | x4 | x4 | %440
 x4 | x4 | x4 | x4 | x4 | x4 | x4 | x4 | x4 | x4 | x4 | x4 | x4 | x4 | x4 | x4 | x4 | x4 | x4 | %459
 x4 | x4 | x4 | x4 | x4 | x4 | x4 | x4 | x4 | x4 | x4 | x4 | x4 | x4 | x4 | x4 | x4 | x4 | x4 | %478
 x4 | x4 | x4 | x4 | x4 | x4 | x4 | x4 | x4 | x4 | x4 | x4 | x4 | x4 | x4 | x4 | x4 | x4 | x4 | %497
 x4 | x4 | x4 | x4 | x4 | x4 | x4 | x4 | x4 | x4 | x4 | x4 | x4 | x4 | x4 ||[M:4/4] x8 | x8 | x8 | %515
 x8 | x8 | x8 | x8 | x8 | x8 | x8 ||[M:2/4] x4 | x4 | x4 | x4 ||[M:4/4] x8 | x8 ||[M:2/4] x4 | x4 | %530
 x4 | x4 | x4 | x4 | x4 | x4 | x4 | x4 | x4 | x4 ||[M:4/4] x8 | x8 | x8 | x8 | x8 | x8 | x8 || %547
[M:2/4] x4 | x4 | x4 | x4 | x4 | x4 | x4 | x4 | x4 | x4 | x4 | x4 | x4 | x4 | x4 | x4 | x4 | x4 | %565
 x4 | x4 | x4 | x4 | x4 | x4 | x4 | x4 | x4 | x4 | x4 | x4 | x4 | x4 | x4 | x4 | x4 | x4 | x4 | %584
 x4 | x4 | x4 | x4 | x4 | x4 | x4 | x4 | x4 | x4 | x4 | x4 | x4 | x4 | x4 | x4 | x4 | x4 | x4 | %603
 x4 | x4 | x4 | x4 | x4 | x4 | x4 | x4 | x4 | x4 | x4 | x4 | x4 | x4 | x4 | x4 | x4 | x4 | x4 | %622
 x4 | x4 | x4 | x4 | x4 | x4 | x4 | x4 | x4 | x4 | x4 | x4 | x4 | x4 | x4 | x4 | x4 | x4 | x4 | %641
 x4 | x4 | x4 | x4 | x4 | x4 | x4 |] %648
V:11
 x4 | x4 | x4 | x4 | x4 | x4 | x4 | x4 | x4 | x4 | x4 | x4 | x4 | x4 | x4 | x4 | x4 | x4 | x4 | %19
 x4 | x4 | x4 | x4 | x4 | x4 | x4 | x4 | x4 | x4 | x4 | x4 | x4 | x4 | x4 | x4 | x4 | x4 | x4 | %38
 x4 | x4 | x4 | x4 | x4 | x4 | x4 | x4 | x4 | x4 | x4 | x4 | x4 | x4 | x4 | x4 | x4 | x4 | x4 | %57
 x4 | x4 | x4 | x4 | x4 | x4 | x4 | x4 | x4 | x4 | x4 | x4 | x4 | x4 | x4 | x4 | x4 | x4 | x4 | %76
 x4 | x4 | x4 | x4 | x4 | x4 | x4 | x4 | x4 | x4 | x4 | x6 | x4 | x4 | x4 | x4 | x4 | x4 | x4 | %95
 x4 | x4 | x4 | x4 | x4 | x4 | x4 | x4 | x4 | x4 | x4 | x4 | x4 | x4 | x4 | x4 | x4 | x4 | x4 | %114
 x4 | x4 | x4 | x4 | x4 | x4 | x4 | x4 | x4 | x4 | x4 | x4 | x4 | x4 | x4 | x4 | x4 | x4 | x4 | %133
 x4 | x4 | x4 | x4 | x4 | x4 | x4 | x4 | x4 | x4 | x4 | x4 | x4 | x4 | x4 | x4 | x4 | x4 | x4 | %152
 x4 | x4 | x4 | x4 | x4 | x4 | x4 | x4 | x4 | x4 | x4 | x4 | x4 | x4 | x4 | x4 | x4 | x4 | x4 | %171
 x4 | x4 | x4 | x4 | x4 | x4 | x4 | x4 | x4 | x4 | x4 | x4 | x4 | x4 | x4 | x4 | x4 | x4 | x4 | %190
 x4 | x4 | x4 | x4 | x4 | x4 | x4 | x4 | x4 | x4 | x4 | x4 | x4 | x4 | x4 | x4 | x4 | x4 | x4 | %209
 x4 | x4 | x4 | x4 | x4 | x4 | x4 | x4 | x4 | x4 | x4 | x4 | x4 | x4 | x4 | x4 | x4 | x4 | x4 | %228
 x =F,3- | x4 | x4 | x4 | x4 | x4 | x4 | x4 | x4 | x4 | x4 | x4 | x C,3- | x4 | x4 | x4 | x4 | x4 | %246
 x4 | x4 | x4 | x4 | x4 | x2 _A,2 | x4 | x4 | x4 | x4 | x4 | x4 | x4 | x4 | x4 | x4 | x4 | x4 | %264
 x4 | x4 | x4 | x4 | x4 | x4 | x4 | x4 | x4 | x4 | x4 | x4 | x4 | x4 | x4 | x4 | x4 | x4 | x4 | %283
 x4 | x4 | x4 | x4 | x4 | x4 | x4 | x4 | x4 | x4 | x4 | x4 | x4 | x4 | x4 | x4 | x4 | x4 | x4 | %302
 x4 | x4 | x4 | x4 | x4 | x4 | x4 | x4 | x4 | x4 | x4 | x4 | x4 | x6 | x4 | x4 | x4 | x4 | x4 | %321
 x4 |[K:treble] x4 | x4 | x4 | x4 | x4 |[K:bass] x4 | x4 | x4 | x4 | x4 | x4 | x4 | x4 | x4 | x4 | %337
 x4 | x4 | x4 | x4 | x4 | x4 | x4 | x4 | x4 | x4 | x4 | x4 | x4 | x4 | x4 | x4 | x4 | x4 | x4 | %356
 x4 | x4 | x4 | x4 | x4 | x4 | x4 | x4 | x4 | x4 | x4 | x4 | x4 | x4 | x4 | x4 | x4 | x4 | x4 | %375
 x4 | x4 | x4 | x4 | x4 | x4 | x4 | x4 | x4 | x4 | x4 | x4 | x4 | x4 | x4 | x4 | x4 | x4 | x4 | %394
 x4 | x4 | x4 | x4 | x4 | x4 | x4 | x4 | x4 | x4 | x4 | x4 | x4 | x4 | x4 | x4 | x4 | x4 | x4 | %413
 x4 | x4 | x4 | x4 | x4 | x4 | x4 | x4 | x4 | x4 | x4 | x4 | x4 | x4 | x4 | x4 | x4 | x4 | x4 | %432
 x4 | x4 | x4 | x4 | x4 | x4 | x4 | x4 | x4 | x4 | x4 | x4 | x4 | x4 | x4 | x4 | x4 | x4 | x4 | %451
 x4 | x4 | x4 | x4 | x4 | x4 | x4 | x4 | x4 | x4 | x4 | x4 | x4 | x4 | x4 | x4 | x4 | x4 | x4 | %470
 x4 | x4 | x4 | x4 | x4 | x4 | x4 | x4 | x4 | x4 | x4 | x4 | x4 | x4 | x4 | x4 | x4 | x4 | x4 | %489
 x4 | x4 | x4 | x4 | x4 | x4 | x4 | x4 | x4 | x4 | x4 | x4 | x4 | x4 | x4 | x4 | x4 | x4 | x4 | %508
 x4 | x4 | x4 | x4 ||[M:4/4] x8 | x8 | x8 | x8 | x8 | x8 | x8 | x8 | x8 | x8 ||[M:2/4] x4 | x4 | %524
 x4 | x4 ||[M:4/4] x8 | x8 ||[M:2/4] x4 | x4 | x4 | x4 | x4 | x4 | x4 | x4 | x4 | x4 | x4 | x4 || %540
[M:4/4] x8 | x8 | x8 | x8 | x8 | x8 | x8 ||[M:2/4] x4 | x4 | x4 | x4 | x4 | x4 | x4 | x4 | x4 | %556
 x4 | x4 | x4 | x4 | x4 | x4 | x4 | x4 | x4 | x4 | x4 | x4 | x4 | x4 | x4 | x4 | x4 | x4 | x4 | %575
 x4 | x4 | x4 | x4 | x4 | x4 | x4 | x4 | x4 | x4 | x4 | x4 | x4 | x4 | x4 | x4 | x4 | x4 | x4 | %594
 x4 | x4 | x4 | x4 | x4 | x4 | x4 | x4 | x4 | x4 | x4 | x4 | x4 | x4 | x4 | x4 | x4 | x4 | x4 | %613
 x4 | x4 | x4 | x4 | x4 | x4 | x4 | x4 | x4 | x4 | x4 | x4 | x4 | x4 | x4 | x4 | x4 | x4 | x4 | %632
 x4 | x4 | x4 | x4 | x4 | x4 | x4 | x4 | x4 | x4 | x4 | x4 | x4 | x4 | x4 | x4 |] %648

